;FLAVOR:RepRap
;TIME:2157
;Generated with Cura_SteamEngine 2.3.1
M190 S60
M104 S210
M109 S210
G21 ;metric values
G90 ;absolute positioning
M82 ;set extruder to absolute mode
M107 ;start with the fan off
G28 X0 Y0 ;move X/Y to min endstops
G28 Z0 ;move Z to min endstops
G1 Z15.0 F9000 ;move the platform down 15mm
G92 E0 ;zero the extruded length
G1 F200 E3 ;extrude 3mm of feed stock
G92 E0 ;zero the extruded length again
G1 F9000
;Put printing message on LCD screen
M117 Printing...
;LAYER_COUNT:148
;LAYER:0
M107
G1 F1500 E-6.5
G0 F3600 X93.441 Y82.623 Z.3
;TYPE:SKIRT
G1 F1500 E0
G1 F1800 X93.964 Y82.04 E0.03907
G1 X94.522 Y81.532 E0.07672
G1 X95.198 Y81.028 E0.11879
G1 X95.881 Y80.622 E0.15843
G1 X96.655 Y80.266 E0.20093
G1 X97.171 Y80.072 E0.22844
G1 X97.45 Y80.002 E0.24279
G1 X98.336 Y79.813 E0.28798
G1 X99.123 Y79.729 E0.32747
G1 X110.485 Y79.71 E0.89432
G1 X111.034 Y79.749 E0.92178
G1 X111.572 Y79.867 E0.94926
G1 X112.088 Y80.062 E0.97678
G1 X112.57 Y80.329 E1.00427
G1 X113.008 Y80.663 E1.03175
G1 X113.393 Y81.057 E1.05924
G1 X113.717 Y81.503 E1.08674
G1 X113.974 Y81.99 E1.11421
G1 X114.157 Y82.51 E1.14171
G1 X114.263 Y83.051 E1.16922
G1 X114.291 Y83.51 E1.19216
G1 X114.29 Y116.491 E2.83759
G1 X114.25 Y117.041 E2.8651
G1 X114.131 Y117.579 E2.89259
G1 X113.935 Y118.094 E2.92008
G1 X113.667 Y118.575 E2.94755
G1 X113.333 Y119.013 E2.97503
G1 X112.938 Y119.397 E3.00252
G1 X112.492 Y119.721 E3.03002
G1 X112.004 Y119.976 E3.05749
G1 X111.484 Y120.159 E3.08499
G1 X110.943 Y120.264 E3.11249
G1 X110.485 Y120.291 E3.13538
G1 X99.3 Y120.276 E3.6934
G1 X98.868 Y120.251 E3.71499
G1 X98.281 Y120.183 E3.74447
G1 X97.594 Y120.038 E3.7795
G1 X96.809 Y119.795 E3.82049
G1 X96.078 Y119.481 E3.86019
G1 X95.354 Y119.076 E3.90157
G1 X94.71 Y118.622 E3.94089
G1 X94.071 Y118.064 E3.98321
G1 X93.519 Y117.467 E4.02377
G1 X92.997 Y116.764 E4.06746
G1 X92.809 Y116.487 E4.08416
G1 X91.841 Y114.91 E4.17648
G1 X88.8 Y110.33 E4.45076
G1 X86.45 Y107.138 E4.64851
G1 X86.156 Y106.672 E4.676
G1 X85.933 Y106.168 E4.70349
G1 X85.785 Y105.637 E4.73099
G1 X85.71 Y104.885 E4.7687
G1 X85.71 Y97.119 E5.15615
G1 X85.75 Y96.569 E5.18366
G1 X85.869 Y96.031 E5.21115
G1 X86.065 Y95.516 E5.23864
G1 X86.27 Y95.133 E5.26031
G1 X89.095 Y90.525 E5.52997
G1 X92.918 Y83.37 E5.93469
G1 X93.213 Y82.904 E5.96221
G1 X93.441 Y82.623 E5.98026
G0 F3600 X93.739 Y82.891
G1 F1800 X94.262 Y82.308 E6.01934
G1 X94.761 Y81.852 E6.05306
G1 X95.437 Y81.348 E6.09513
G1 X96.048 Y80.985 E6.13059
G1 X96.822 Y80.629 E6.17309
G1 X97.534 Y80.393 E6.21051
G1 X98.42 Y80.204 E6.25571
G1 X99.123 Y80.129 E6.29098
G1 X110.485 Y80.11 E6.85783
G1 X111.005 Y80.149 E6.88385
G1 X111.513 Y80.267 E6.90987
G1 X111.996 Y80.461 E6.93584
G1 X112.444 Y80.727 E6.96183
G1 X112.847 Y81.058 E6.98785
G1 X113.194 Y81.447 E7.01386
G1 X113.477 Y81.885 E7.03987
G1 X113.691 Y82.36 E7.06586
G1 X113.829 Y82.863 E7.09189
G1 X113.891 Y83.51 E7.12431
G1 X113.89 Y116.491 E8.76974
G1 X113.85 Y117.011 E8.79576
G1 X113.731 Y117.518 E8.82174
G1 X113.536 Y118.001 E8.84773
G1 X113.269 Y118.449 E8.87375
G1 X112.938 Y118.851 E8.89973
G1 X112.548 Y119.197 E8.92574
G1 X112.11 Y119.48 E8.95176
G1 X111.634 Y119.693 E8.97777
G1 X111.132 Y119.83 E9.00373
G1 X110.485 Y119.891 E9.03615
G1 X99.3 Y119.876 E9.59418
G1 X98.914 Y119.853 E9.61347
G1 X98.327 Y119.785 E9.64295
G1 X97.713 Y119.656 E9.67425
G1 X96.928 Y119.413 E9.71525
G1 X96.273 Y119.132 E9.75081
G1 X95.549 Y118.727 E9.7922
G1 X94.973 Y118.321 E9.82735
G1 X94.334 Y117.763 E9.86968
G1 X93.84 Y117.229 E9.90597
G1 X93.318 Y116.526 E9.94965
G1 X93.15 Y116.277 E9.96464
G1 X92.178 Y114.694 E10.05732
G1 X89.136 Y110.112 E10.33171
G1 X86.772 Y106.901 E10.53064
G1 X86.496 Y106.459 E10.55663
G1 X86.291 Y105.979 E10.58267
G1 X86.162 Y105.475 E10.60863
G1 X86.11 Y104.885 E10.63818
G1 X86.11 Y97.119 E11.02562
G1 X86.15 Y96.599 E11.05164
G1 X86.269 Y96.092 E11.07763
G1 X86.464 Y95.609 E11.10361
G1 X86.611 Y95.342 E11.11882
G1 X89.446 Y90.717 E11.38946
G1 X93.271 Y83.559 E11.79436
G1 X93.551 Y83.119 E11.82038
G1 X93.739 Y82.891 E11.83513
G0 F3600 X94.037 Y83.158
G1 F1800 X94.56 Y82.575 E11.8742
G1 X95 Y82.173 E11.90394
G1 X95.676 Y81.669 E11.946
G1 X96.215 Y81.348 E11.9773
G1 X96.989 Y80.992 E12.0198
G1 X97.617 Y80.784 E12.05281
G1 X98.503 Y80.595 E12.09801
G1 X99.124 Y80.529 E12.12916
G1 X110.486 Y80.51 E12.69602
G1 X110.974 Y80.549 E12.72044
G1 X111.449 Y80.667 E12.74486
G1 X111.899 Y80.861 E12.76931
G1 X112.311 Y81.125 E12.79372
G1 X112.674 Y81.453 E12.81813
G1 X112.98 Y81.835 E12.84255
G1 X113.219 Y82.262 E12.86696
G1 X113.386 Y82.722 E12.89137
G1 X113.475 Y83.203 E12.91578
G1 X113.491 Y83.51 E12.93112
G1 X113.49 Y116.491 E14.57654
G1 X113.45 Y116.979 E14.60097
G1 X113.331 Y117.454 E14.6254
G1 X113.137 Y117.903 E14.64981
G1 X112.872 Y118.315 E14.67424
G1 X112.544 Y118.678 E14.69865
G1 X112.161 Y118.983 E14.72308
G1 X111.733 Y119.221 E14.74751
G1 X111.273 Y119.387 E14.77191
G1 X110.791 Y119.476 E14.79636
G1 X110.486 Y119.491 E14.8116
G1 X99.301 Y119.476 E15.36962
G1 X98.96 Y119.456 E15.38666
G1 X98.373 Y119.388 E15.41614
G1 X97.831 Y119.274 E15.44378
G1 X97.046 Y119.031 E15.48477
G1 X96.468 Y118.783 E15.51615
G1 X95.744 Y118.378 E15.55754
G1 X95.236 Y118.02 E15.58855
G1 X94.597 Y117.462 E15.63087
G1 X94.161 Y116.99 E15.66293
G1 X93.639 Y116.287 E15.70661
G1 X93.491 Y116.068 E15.7198
G1 X92.52 Y114.485 E15.81245
G1 X89.461 Y109.88 E16.08826
G1 X87.094 Y106.664 E16.28748
G1 X86.837 Y106.247 E16.31192
G1 X86.651 Y105.794 E16.33635
G1 X86.541 Y105.317 E16.36077
G1 X86.51 Y104.885 E16.38238
G1 X86.51 Y97.119 E16.76983
G1 X86.55 Y96.631 E16.79426
G1 X86.669 Y96.156 E16.81869
G1 X86.952 Y95.551 E16.85201
G1 X89.794 Y90.917 E17.12322
G1 X93.624 Y83.747 E17.52877
G1 X94.037 Y83.158 E17.56465
G0 F3600 X94.335 Y83.425
G1 F1800 X94.858 Y82.842 E17.60373
G1 X95.239 Y82.494 E17.62947
G1 X95.915 Y81.99 E17.67154
G1 X96.383 Y81.712 E17.6987
G1 X97.157 Y81.356 E17.7412
G1 X97.701 Y81.175 E17.7698
G1 X98.587 Y80.986 E17.815
G1 X99.125 Y80.929 E17.84199
G1 X110.487 Y80.91 E18.40885
G1 X110.941 Y80.949 E18.43158
G1 X111.381 Y81.067 E18.45431
G1 X111.794 Y81.26 E18.47705
G1 X112.166 Y81.522 E18.49975
G1 X112.488 Y81.845 E18.52251
G1 X112.748 Y82.219 E18.54523
G1 X112.939 Y82.633 E18.56798
G1 X113.054 Y83.073 E18.59067
G1 X113.091 Y83.51 E18.61255
G1 X113.09 Y116.491 E20.25797
G1 X113.05 Y116.945 E20.28071
G1 X112.932 Y117.385 E20.30344
G1 X112.738 Y117.797 E20.32616
G1 X112.475 Y118.17 E20.34893
G1 X112.152 Y118.491 E20.37165
G1 X111.777 Y118.75 E20.39439
G1 X111.363 Y118.94 E20.41711
G1 X110.922 Y119.055 E20.43985
G1 X110.487 Y119.091 E20.46162
G1 X99.302 Y119.076 E21.01965
G1 X99.006 Y119.059 E21.03444
G1 X98.419 Y118.991 E21.06392
G1 X97.949 Y118.892 E21.08788
G1 X97.164 Y118.649 E21.12888
G1 X96.664 Y118.434 E21.15603
G1 X95.94 Y118.029 E21.19742
G1 X95.499 Y117.718 E21.22434
G1 X94.86 Y117.16 E21.26667
G1 X94.483 Y116.752 E21.29438
G1 X93.961 Y116.049 E21.33807
G1 X93.832 Y115.859 E21.34952
G1 X92.853 Y114.264 E21.44289
G1 X89.787 Y109.647 E21.7194
G1 X87.416 Y106.426 E21.91894
G1 X87.179 Y106.037 E21.94166
G1 X87.014 Y105.613 E21.96436
G1 X86.925 Y105.166 E21.9871
G1 X86.91 Y104.885 E22.00114
G1 X86.91 Y97.119 E22.38859
G1 X86.95 Y96.665 E22.41133
G1 X87.068 Y96.225 E22.43405
G1 X87.293 Y95.76 E22.45983
G1 X90.145 Y91.109 E22.73202
G1 X93.977 Y83.936 E23.13774
G1 X94.335 Y83.425 E23.16887
G0 F3600 X94.632 Y83.692
G1 F1800 X95.155 Y83.109 E23.20795
G1 X95.478 Y82.814 E23.22977
G1 X96.154 Y82.31 E23.27184
G1 X96.55 Y82.075 E23.29481
G1 X97.324 Y81.719 E23.33732
G1 X97.784 Y81.566 E23.3615
G1 X98.67 Y81.377 E23.4067
G1 X99.125 Y81.329 E23.42952
G1 X110.487 Y81.31 E23.99638
G1 X110.905 Y81.349 E24.01732
G1 X111.307 Y81.467 E24.03822
G1 X111.679 Y81.659 E24.05911
G1 X112.009 Y81.917 E24.08001
G1 X112.283 Y82.234 E24.10091
G1 X112.493 Y82.597 E24.12183
G1 X112.629 Y82.993 E24.14272
G1 X112.691 Y83.51 E24.1687
G1 X112.69 Y116.491 E25.81413
G1 X112.65 Y116.908 E25.83503
G1 X112.532 Y117.31 E25.85593
G1 X112.339 Y117.682 E25.87684
G1 X112.08 Y118.012 E25.89777
G1 X111.763 Y118.285 E25.91864
G1 X111.399 Y118.494 E25.93958
G1 X111.003 Y118.63 E25.96047
G1 X110.487 Y118.691 E25.98639
G1 X99.302 Y118.676 E26.54442
G1 X99.052 Y118.661 E26.55691
G1 X98.465 Y118.593 E26.58639
G1 X98.067 Y118.51 E26.60668
G1 X97.282 Y118.267 E26.64767
G1 X96.859 Y118.085 E26.67065
G1 X96.135 Y117.68 E26.71203
G1 X95.762 Y117.417 E26.7348
G1 X95.123 Y116.859 E26.77713
G1 X94.804 Y116.514 E26.80057
G1 X94.282 Y115.811 E26.84425
G1 X94.173 Y115.65 E26.85396
G1 X93.194 Y114.055 E26.94732
G1 X90.113 Y109.415 E27.2252
G1 X87.738 Y106.189 E27.42506
G1 X87.523 Y105.83 E27.44594
G1 X87.38 Y105.436 E27.46685
G1 X87.31 Y104.885 E27.49456
G1 X87.31 Y97.119 E27.882
G1 X87.35 Y96.702 E27.9029
G1 X87.468 Y96.3 E27.92381
G1 X87.634 Y95.969 E27.94228
G1 X90.492 Y91.308 E28.21505
G1 X94.33 Y84.124 E28.62141
G1 X94.632 Y83.692 E28.6477
G1 F1500 E22.1477
G0 F3600 X96.777 Y85.54
G0 X96.826 Y85.575
G0 X96.745 Y85.517
;TYPE:WALL-INNER
G1 F1500 E28.6477
G1 F1800 X97.241 Y84.966 E28.68469
G1 X97.811 Y84.554 E28.71978
G1 X98.463 Y84.267 E28.75532
G1 X99.151 Y84.122 E28.7904
G1 X100.106 Y84.122 E28.83804
G1 X100.106 Y84.1 E28.83914
G1 X109.9 Y84.1 E29.32776
G1 X109.9 Y85.4 E29.39262
G1 X104.9 Y85.4 E29.64207
G1 X104.9 Y85.473 E29.64571
G1 X104.541 Y85.55 E29.66403
G1 X103.948 Y85.813 E29.6964
G1 X103.423 Y86.195 E29.72879
G1 X103.013 Y86.65 E29.75934
G1 X101.736 Y86.651 E29.82305
G1 X101.541 Y86.66 E29.83279
G1 X101.176 Y86.739 E29.85142
G1 X100.823 Y86.896 E29.8707
G1 X100.51 Y87.123 E29.88999
G1 X100.25 Y87.411 E29.90935
G1 X100.057 Y87.747 E29.92868
G1 X99.936 Y88.116 E29.94805
G1 X99.897 Y88.5 E29.96731
G1 X99.936 Y88.885 E29.98661
G1 X100.057 Y89.254 E30.00599
G1 X100.25 Y89.59 E30.02532
G1 X100.51 Y89.878 E30.04468
G1 X100.823 Y90.105 E30.06397
G1 X101.176 Y90.262 E30.08324
G1 X101.541 Y90.341 E30.10187
G1 X101.736 Y90.35 E30.11161
G1 X103.011 Y90.35 E30.17522
G1 X103.423 Y90.806 E30.20588
G1 X103.948 Y91.188 E30.23828
G1 X104.541 Y91.451 E30.27064
G1 X105.16 Y91.584 E30.30223
G1 X105.485 Y91.6 E30.31846
G1 X109.9 Y91.6 E30.53873
G1 X109.9 Y92.9 E30.60358
G1 X104.9 Y92.9 E30.85303
G1 X104.9 Y92.973 E30.85668
G1 X104.541 Y93.05 E30.87499
G1 X103.948 Y93.313 E30.90736
G1 X103.423 Y93.695 E30.93975
G1 X103.013 Y94.15 E30.97031
G1 X101.735 Y94.15 E31.03407
G1 X101.539 Y94.16 E31.04386
G1 X101.176 Y94.239 E31.06239
G1 X100.823 Y94.396 E31.08167
G1 X100.51 Y94.623 E31.10096
G1 X100.25 Y94.911 E31.12031
G1 X100.057 Y95.247 E31.13964
G1 X99.936 Y95.616 E31.15902
G1 X99.897 Y96 E31.17828
G1 X99.936 Y96.385 E31.19758
G1 X100.057 Y96.754 E31.21696
G1 X100.25 Y97.09 E31.23629
G1 X100.51 Y97.378 E31.25564
G1 X100.823 Y97.605 E31.27493
G1 X101.176 Y97.762 E31.29421
G1 X101.541 Y97.841 E31.31284
G1 X101.736 Y97.85 E31.32258
G1 X103.011 Y97.85 E31.38619
G1 X103.423 Y98.306 E31.41685
G1 X103.948 Y98.688 E31.44924
G1 X104.541 Y98.951 E31.48161
G1 X105.16 Y99.084 E31.51319
G1 X105.485 Y99.1 E31.52943
G1 X109.9 Y99.1 E31.74969
G1 X109.9 Y100.4 E31.81455
G1 X104.9 Y100.4 E32.064
G1 X104.9 Y100.472 E32.06759
G1 X104.541 Y100.549 E32.08591
G1 X103.948 Y100.812 E32.11827
G1 X103.423 Y101.194 E32.15067
G1 X103.011 Y101.65 E32.18133
G1 X101.736 Y101.65 E32.24494
G1 X101.541 Y101.659 E32.25468
G1 X101.176 Y101.738 E32.27331
G1 X100.823 Y101.895 E32.29258
G1 X100.51 Y102.122 E32.31187
G1 X100.25 Y102.41 E32.33123
G1 X100.057 Y102.746 E32.35056
G1 X99.936 Y103.115 E32.36993
G1 X99.897 Y103.5 E32.38924
G1 X99.936 Y103.884 E32.4085
G1 X100.057 Y104.253 E32.42787
G1 X100.25 Y104.589 E32.4472
G1 X100.51 Y104.877 E32.46656
G1 X100.823 Y105.104 E32.48585
G1 X101.176 Y105.261 E32.50512
G1 X101.553 Y105.343 E32.52437
G1 X103.012 Y105.349 E32.59716
G1 X103.423 Y105.805 E32.62779
G1 X103.948 Y106.187 E32.66018
G1 X104.541 Y106.45 E32.69255
G1 X105.174 Y106.586 E32.72485
G1 X105.511 Y106.587 E32.74166
G1 X105.65 Y106.587 E32.7486
G1 X109.9 Y106.598 E32.96063
G1 X109.9 Y106.9 E32.9757
G1 X105.65 Y106.9 E33.1387
G1 X105.65 Y106.957 E33.14154
G1 X105.515 Y106.986 E33.14817
G1 X105.021 Y107.092 E33.17338
G1 X104.261 Y107.43 E33.21488
G1 X103.587 Y107.918 E33.25639
G1 X103.03 Y108.537 E33.29794
G1 X103.001 Y108.587 E33.30082
G1 X100.587 Y108.587 E33.42125
G1 X100.587 Y108.674 E33.42559
G1 X100.48 Y108.697 E33.43105
G1 X100.042 Y108.89 E33.45493
G1 X99.653 Y109.172 E33.4789
G1 X99.335 Y109.529 E33.50276
G1 X99.095 Y109.942 E33.52659
G1 X98.947 Y110.399 E33.55055
G1 X98.897 Y110.875 E33.57443
G1 X98.947 Y111.35 E33.59826
G1 X99.095 Y111.807 E33.62223
G1 X99.335 Y112.22 E33.64606
G1 X99.653 Y112.577 E33.66991
G1 X100.042 Y112.859 E33.69388
G1 X100.48 Y113.052 E33.71776
G1 X100.587 Y113.075 E33.72322
G1 X100.587 Y113.162 E33.72756
G1 X103.001 Y113.162 E33.84799
G1 X103.03 Y113.212 E33.85088
G1 X103.587 Y113.831 E33.89242
G1 X104.261 Y114.319 E33.93394
G1 X105.021 Y114.657 E33.97543
G1 X105.65 Y114.792 E34.00753
G1 X105.65 Y114.85 E34.01042
G1 X109.9 Y114.85 E34.22246
G1 X109.9 Y115.9 E34.27484
G1 X99.535 Y115.9 E34.79195
G1 X98.79 Y115.821 E34.82933
G1 X98.123 Y115.605 E34.86431
G1 X97.504 Y115.248 E34.89996
G1 X96.975 Y114.77 E34.93553
G1 X96.559 Y114.198 E34.97081
G1 X96.27 Y113.551 E35.00617
G1 X96.122 Y112.854 E35.04172
G1 X96.122 Y111.895 E35.08956
G1 X96.1 Y111.895 E35.09066
G1 X96.1 Y101.541 E35.60722
G1 X93.1 Y101.54 E35.75689
G1 X92.9 Y101.54 E35.76687
G1 X92.9 Y101.74 E35.77333
G1 X92.9 Y104.29 E35.90055
G1 X90.1 Y104.29 E36.04024
G1 X90.1 Y97.71 E36.36852
G1 X92.9 Y97.71 E36.50821
G1 X92.9 Y100.459 E36.64536
G1 X95.9 Y100.46 E36.79503
G1 X96.1 Y100.46 E36.80501
G1 X96.1 Y100.26 E36.81147
G1 X96.1 Y87.536 E37.44627
G1 X96.177 Y86.805 E37.48295
G1 X96.392 Y86.134 E37.5181
G1 X96.745 Y85.517 E37.55356
G0 F3600 X96.826 Y85.575
G0 X99.706 Y84.222
G0 X99.706 Y83.722
;TYPE:WALL-OUTER
G1 F1800 X99.706 Y83.7 E37.55466
G1 X110.3 Y83.7 E38.0832
G1 X110.3 Y85.8 E38.18797
G1 X105.3 Y85.8 E38.43742
G1 X105.3 Y85.814 E38.43812
G1 X105.217 Y85.814 E38.44226
G1 X104.665 Y85.932 E38.47042
G1 X104.149 Y86.161 E38.49858
G1 X103.692 Y86.494 E38.52679
G1 X103.314 Y86.913 E38.55495
G1 X103.235 Y87.05 E38.56284
G1 X101.745 Y87.051 E38.63717
G1 X101.593 Y87.058 E38.64476
G1 X101.301 Y87.121 E38.65967
G1 X101.024 Y87.244 E38.67479
G1 X100.779 Y87.422 E38.6899
G1 X100.575 Y87.648 E38.70509
G1 X100.424 Y87.91 E38.72017
G1 X100.33 Y88.199 E38.73533
G1 X100.299 Y88.5 E38.75043
G1 X100.33 Y88.802 E38.76558
G1 X100.424 Y89.091 E38.78074
G1 X100.575 Y89.353 E38.79583
G1 X100.779 Y89.579 E38.81102
G1 X101.024 Y89.757 E38.82612
G1 X101.301 Y89.88 E38.84124
G1 X101.593 Y89.943 E38.85615
G1 X101.745 Y89.95 E38.86374
G1 X103.235 Y89.95 E38.93808
G1 X103.314 Y90.088 E38.94601
G1 X103.692 Y90.507 E38.97416
G1 X104.149 Y90.84 E39.00237
G1 X104.665 Y91.069 E39.03054
G1 X105.212 Y91.186 E39.05844
G1 X105.495 Y91.2 E39.07258
G1 X110.3 Y91.2 E39.3123
G1 X110.3 Y93.3 E39.41707
G1 X105.3 Y93.3 E39.66652
G1 X105.3 Y93.314 E39.66722
G1 X105.217 Y93.314 E39.67136
G1 X104.665 Y93.432 E39.69952
G1 X104.149 Y93.661 E39.72769
G1 X103.692 Y93.994 E39.7559
G1 X103.314 Y94.413 E39.78405
G1 X103.235 Y94.55 E39.79194
G1 X101.745 Y94.55 E39.86628
G1 X101.592 Y94.558 E39.87392
G1 X101.301 Y94.621 E39.88878
G1 X101.024 Y94.744 E39.9039
G1 X100.779 Y94.922 E39.91901
G1 X100.575 Y95.148 E39.9342
G1 X100.424 Y95.41 E39.94928
G1 X100.33 Y95.699 E39.96444
G1 X100.299 Y96 E39.97954
G1 X100.33 Y96.302 E39.99469
G1 X100.424 Y96.591 E40.00985
G1 X100.575 Y96.853 E40.02494
G1 X100.779 Y97.079 E40.04012
G1 X101.024 Y97.257 E40.05523
G1 X101.301 Y97.38 E40.07035
G1 X101.593 Y97.443 E40.08526
G1 X101.745 Y97.45 E40.09285
G1 X103.235 Y97.45 E40.16718
G1 X103.314 Y97.588 E40.17512
G1 X103.692 Y98.007 E40.20327
G1 X104.149 Y98.34 E40.23148
G1 X104.665 Y98.569 E40.25965
G1 X105.212 Y98.686 E40.28755
G1 X105.495 Y98.7 E40.30169
G1 X110.3 Y98.7 E40.54141
G1 X110.3 Y100.8 E40.64618
G1 X105.3 Y100.8 E40.89563
G1 X105.3 Y100.813 E40.89628
G1 X105.217 Y100.813 E40.90042
G1 X104.665 Y100.931 E40.92858
G1 X104.149 Y101.16 E40.95675
