;FLAVOR:RepRap
;TIME:2485
;Generated with Cura_SteamEngine 2.3.1
M190 S60
M104 S210
M109 S210
G21 ;metric values
G90 ;absolute positioning
M82 ;set extruder to absolute mode
M107 ;start with the fan off
G28 X0 Y0 ;move X/Y to min endstops
G28 Z0 ;move Z to min endstops
G1 Z15.0 F9000 ;move the platform down 15mm
G92 E0 ;zero the extruded length
G1 F200 E3 ;extrude 3mm of feed stock
G92 E0 ;zero the extruded length again
G1 F9000
;Put printing message on LCD screen
M117 Printing...
;LAYER_COUNT:148
;LAYER:-9
M107
G1 F1500 E-6.5
G0 F7200 X90.631 Y80.051 Z.36
G1 F1500 E0
G1 F1350 X91.181 Y79.44 E0.09843
G1 X91.723 Y78.898 E0.19021
G1 X92.398 Y78.35 E0.29432
G1 X93.055 Y77.876 E0.39132
G1 X93.701 Y77.456 E0.48358
G1 X94.464 Y77.068 E0.58607
G1 X95.205 Y76.742 E0.683
G1 X95.926 Y76.466 E0.77544
G1 X96.72 Y76.254 E0.87384
G1 X97.492 Y76.09 E0.96834
G1 X98.274 Y75.966 E1.06315
G1 X98.828 Y75.937 E1.12957
G1 X98.977 Y75.918 E1.14756
G1 X99.509 Y75.9 E1.21129
G1 X110.475 Y75.9 E2.52432
G1 X111.267 Y75.939 E2.61927
G1 X112.01 Y76.053 E2.70928
G1 X112.744 Y76.239 E2.79994
G1 X113.458 Y76.5 E2.89096
G1 X114.15 Y76.835 E2.98302
G1 X114.785 Y77.223 E3.07212
G1 X115.398 Y77.691 E3.16447
G1 X115.947 Y78.201 E3.25419
G1 X116.456 Y78.783 E3.34677
G1 X116.895 Y79.395 E3.43695
G1 X117.27 Y80.05 E3.52732
G1 X117.583 Y80.748 E3.61892
G1 X117.824 Y81.473 E3.71039
G1 X117.989 Y82.208 E3.80059
G1 X118.081 Y82.969 E3.89237
G1 X118.1 Y83.482 E3.95384
G1 X118.1 Y85.975 E4.25234
G1 X118.061 Y86.767 E4.34729
G1 X117.948 Y87.509 E4.43716
G1 X117.685 Y88.548 E4.56549
G1 X117.822 Y88.963 E4.61782
G1 X117.989 Y89.708 E4.70924
G1 X118.081 Y90.469 E4.80102
G1 X118.1 Y90.982 E4.86248
G1 X118.1 Y93.495 E5.16338
G1 X118.062 Y94.254 E5.25438
G1 X117.947 Y95.013 E5.34629
G1 X117.685 Y96.048 E5.47413
G1 X117.825 Y96.473 E5.52771
G1 X117.989 Y97.206 E5.61764
G1 X118.081 Y97.969 E5.70967
G1 X118.1 Y98.482 E5.77113
G1 X118.1 Y100.975 E6.06964
G1 X118.061 Y101.768 E6.1647
G1 X117.948 Y102.508 E6.25433
G1 X117.684 Y103.547 E6.38269
G1 X117.828 Y103.985 E6.4379
G1 X117.992 Y104.729 E6.52912
G1 X118.083 Y105.491 E6.62101
G1 X118.1 Y105.983 E6.67995
G1 X118.1 Y107.475 E6.8586
G1 X118.061 Y108.267 E6.95355
G1 X117.947 Y109.01 E7.04355
G1 X117.76 Y109.747 E7.13459
G1 X117.33 Y110.925 E7.28475
G1 X117.579 Y111.485 E7.35813
G1 X117.824 Y112.223 E7.45124
G1 X117.989 Y112.958 E7.54143
G1 X118.081 Y113.719 E7.63322
G1 X118.1 Y114.232 E7.69468
G1 X118.1 Y116.475 E7.96325
G1 X118.061 Y117.267 E8.0582
G1 X117.947 Y118.01 E8.1482
G1 X117.761 Y118.744 E8.23887
G1 X117.5 Y119.458 E8.32989
G1 X117.165 Y120.15 E8.42195
G1 X116.777 Y120.785 E8.51105
G1 X116.309 Y121.398 E8.6034
G1 X115.799 Y121.947 E8.69312
G1 X115.217 Y122.456 E8.7857
G1 X114.605 Y122.895 E8.87588
G1 X113.95 Y123.27 E8.96625
G1 X113.252 Y123.583 E9.05784
G1 X112.527 Y123.824 E9.14932
G1 X111.792 Y123.989 E9.23952
G1 X111.031 Y124.081 E9.3313
G1 X110.497 Y124.1 E9.39528
G1 X99.509 Y124.1 E10.71095
G1 X98.684 Y124.057 E10.80986
G1 X97.883 Y123.972 E10.90631
G1 X97.114 Y123.852 E10.9995
G1 X96.319 Y123.639 E11.09805
G1 X95.548 Y123.389 E11.1951
G1 X94.817 Y123.111 E11.28874
G1 X94.058 Y122.728 E11.39054
G1 X93.362 Y122.326 E11.48678
G1 X92.72 Y121.912 E11.57824
G1 X92.051 Y121.373 E11.68111
G1 X91.429 Y120.811 E11.78149
G1 X90.907 Y120.291 E11.86971
G1 X90.378 Y119.641 E11.97005
G1 X89.901 Y118.985 E12.06717
G1 X89.472 Y118.329 E12.16102
G1 X89.084 Y117.572 E12.26288
G1 X88.76 Y116.845 E12.35818
G1 X88.478 Y116.115 E12.45188
G1 X88.26 Y115.309 E12.55186
G1 X88.092 Y114.517 E12.6488
G1 X87.968 Y113.75 E12.74183
G1 X87.937 Y113.17 E12.81137
G1 X87.918 Y113.021 E12.82936
G1 X87.9 Y112.513 E12.89022
G1 X87.9 Y110.886 E13.08504
G1 X86.545 Y110.391 E13.25777
G1 X85.85 Y110.055 E13.3502
G1 X85.215 Y109.667 E13.4393
G1 X84.602 Y109.199 E13.53164
G1 X84.053 Y108.689 E13.62137
G1 X83.544 Y108.107 E13.71394
G1 X83.105 Y107.495 E13.80413
G1 X82.73 Y106.84 E13.8945
G1 X82.417 Y106.142 E13.98609
G1 X82.176 Y105.417 E14.07757
G1 X82.011 Y104.682 E14.16777
G1 X81.919 Y103.921 E14.25955
G1 X81.9 Y103.408 E14.32102
G1 X81.9 Y96.635 E15.13199
G1 X81.939 Y95.843 E15.22694
G1 X82.053 Y95.099 E15.31706
G1 X82.239 Y94.366 E15.40761
G1 X82.5 Y93.652 E15.49864
G1 X82.835 Y92.96 E15.59069
G1 X83.223 Y92.325 E15.67979
G1 X83.691 Y91.712 E15.77214
G1 X84.201 Y91.163 E15.86186
G1 X84.783 Y90.654 E15.95444
G1 X85.395 Y90.215 E16.04462
G1 X86.05 Y89.84 E16.13499
G1 X86.754 Y89.524 E16.22739
G1 X87.9 Y89.142 E16.37203
G1 X87.9 Y87.509 E16.56756
G1 X87.943 Y86.705 E16.66397
G1 X88.029 Y85.878 E16.76352
G1 X88.144 Y85.143 E16.8526
G1 X88.353 Y84.35 E16.95079
G1 X88.603 Y83.57 E17.04887
G1 X88.874 Y82.853 E17.14064
G1 X89.241 Y82.12 E17.2388
G1 X89.644 Y81.414 E17.33613
G1 X90.069 Y80.75 E17.43053
G1 X90.631 Y80.051 E17.53792
G0 F7200 X91.2 Y79.421
G1 F1350 X91.2 Y120.582 E22.4664
G0 F7200 X92.8 Y121.963
G1 F1350 X92.8 Y78.059 E27.72331
G0 F7200 X94.4 Y77.1
G1 F1350 X94.4 Y122.9 E33.20724
G0 F7200 X96 Y123.535
G1 F1350 X96 Y76.446 E38.84551
G0 F7200 X97.6 Y76.072
G1 F1350 X97.6 Y123.927 E44.5755
G0 F7200 X99.2 Y124.083
G1 F1350 X99.2 Y75.91 E50.34357
G0 F7200 X100.8 Y75.9
G1 F1350 X100.8 Y124.1 E56.11486
G0 F7200 X102.4 Y124.1
G1 F1350 X102.4 Y75.9 E61.88616
G0 F7200 X104 Y75.9
G1 F1350 X104 Y124.1 E67.65746
G0 F7200 X105.6 Y124.1
G1 F1350 X105.6 Y75.9 E73.42876
G0 F7200 X107.2 Y75.9
G1 F1350 X107.2 Y124.1 E79.20006
G0 F7200 X108.8 Y124.1
G1 F1350 X108.8 Y75.9 E84.97136
G0 F7200 X110.4 Y75.9
G1 F1350 X110.4 Y124.1 E90.74266
G0 F7200 X112 Y123.943
G1 F1350 X112 Y76.052 E96.47696
G0 F7200 X113.6 Y76.569
G1 F1350 X113.6 Y123.427 E102.08757
G0 F7200 X115.2 Y122.469
G1 F1350 X115.2 Y77.54 E107.46721
G0 F7200 X116.8 Y79.263
G1 F1350 X116.8 Y120.748 E112.43448
G0 F7200 X89.6 Y118.524
G1 F1350 X89.6 Y81.491 E116.86868
G0 F7200 X88 Y86.156
G1 F1350 X88 Y113.947 E120.19627
G0 F7200 X87.432 Y111.214
G0 X86.4 Y110.32
G1 F1350 X86.4 Y89.682 E122.6674
G0 F7200 X84.8 Y90.641
G1 F1350 X84.8 Y109.35 E124.90755
G0 F7200 X83.2 Y107.627
G1 F1350 X83.2 Y92.362 E126.73532
;TIME_ELAPSED:56.676974
;LAYER:-8
G0 F7200 X83.489 Y91.974 Z.51
;TYPE:SUPPORT
G1 F1350 X114.479 Y122.965 E128.92187
G1 X113.949 Y123.269 E128.95235
G1 X113.549 Y123.448 E128.97422
G1 X82.919 Y92.819 E131.13529
G1 X82.834 Y92.959 E131.14346
G1 X82.5 Y93.651 E131.1818
G1 X82.456 Y93.77 E131.18813
G1 X112.512 Y123.826 E133.30874
G1 X111.792 Y123.988 E133.34556
G1 X111.317 Y124.045 E133.36943
G1 X82.117 Y94.844 E135.42968
G1 X82.053 Y95.098 E135.44275
G1 X81.938 Y95.841 E135.48026
G1 X81.927 Y96.069 E135.49165
G1 X109.957 Y124.099 E137.46932
G1 X108.543 Y124.099 E137.53986
G1 X81.899 Y97.456 E139.4197
G1 X81.899 Y98.87 E139.49025
G1 X107.128 Y124.099 E141.27029
G1 X105.714 Y124.099 E141.34084
G1 X81.899 Y100.284 E143.02111
G1 X81.899 Y101.698 E143.09166
G1 X104.3 Y124.099 E144.67217
G1 X102.886 Y124.099 E144.74271
G1 X81.899 Y103.113 E146.22342
G1 X81.899 Y103.407 E146.23809
G1 X81.919 Y103.919 E146.26366
G1 X82.004 Y104.632 E146.29948
G1 X101.471 Y124.099 E147.67298
G1 X100.057 Y124.099 E147.74353
G1 X87.899 Y111.941 E148.60134
G1 X87.899 Y112.512 E148.62983
G1 X87.918 Y113.02 E148.65519
G1 X87.937 Y113.169 E148.66268
G1 X87.949 Y113.405 E148.67447
G1 X98.59 Y124.046 E149.42525
G1 X97.883 Y123.971 E149.46072
G1 X97.114 Y123.851 E149.49955
G1 X96.932 Y123.802 E149.50895
G1 X88.212 Y115.082 E150.1242
G1 X88.26 Y115.308 E150.13572
G1 X88.478 Y116.114 E150.17738
G1 X88.759 Y116.844 E150.21641
G1 X88.919 Y117.203 E150.23601
G1 X94.83 Y123.115 E150.6531
G0 F7200 X87.432 Y111.214
G0 X86.164 Y110.206
G1 F1350 X82.674 Y106.715 E150.89938
G0 F7200 X83.489 Y91.974
G1 F1350 X83.691 Y91.711 E150.91592
G1 X84.147 Y91.218 E150.94942
G1 X115.305 Y122.376 E153.14779
G1 X115.798 Y121.946 E153.18043
G1 X116.035 Y121.692 E153.19776
G1 X84.907 Y90.564 E155.39401
G1 X85.395 Y90.214 E155.42397
G1 X85.762 Y90.004 E155.44506
G1 X116.675 Y120.918 E157.62618
G1 X116.776 Y120.784 E157.63455
G1 X117.165 Y120.149 E157.6717
G1 X117.216 Y120.044 E157.67753
G1 X86.713 Y89.542 E159.82964
G1 X86.754 Y89.523 E159.8319
G1 X87.77 Y89.184 E159.88533
G1 X117.645 Y119.059 E161.99317
G1 X117.76 Y118.743 E162.00995
G1 X117.946 Y118.009 E162.04773
G1 X117.955 Y117.955 E162.05046
G1 X87.899 Y87.899 E164.17107
G1 X87.899 Y87.508 E164.19058
G1 X87.942 Y86.704 E164.23075
G1 X87.958 Y86.544 E164.23877
G1 X118.09 Y116.676 E166.36475
G1 X118.099 Y116.474 E166.37483
G1 X118.099 Y115.271 E166.43485
G1 X88.119 Y85.291 E168.5501
G1 X88.143 Y85.142 E168.55763
G1 X88.352 Y84.35 E168.5985
G1 X88.41 Y84.167 E168.60808
G1 X118.085 Y113.842 E170.70181
G1 X118.08 Y113.719 E170.70795
G1 X117.988 Y112.958 E170.74619
G1 X117.823 Y112.222 E170.78382
G1 X117.795 Y112.138 E170.78824
G1 X88.773 Y83.116 E172.8359
G1 X88.873 Y82.853 E172.84994
G1 X89.223 Y82.152 E172.88903
G1 X117.507 Y110.436 E174.88461
G1 X117.759 Y109.746 E174.92126
G1 X117.855 Y109.37 E174.94062
G1 X89.743 Y81.257 E176.92411
G1 X90.068 Y80.75 E176.95416
G1 X90.327 Y80.427 E176.97481
G1 X118.066 Y108.166 E178.93195
G1 X118.099 Y107.474 E178.96651
G1 X118.099 Y106.785 E179.00089
G1 X90.977 Y79.664 E180.91445
G1 X91.18 Y79.439 E180.92957
G1 X91.674 Y78.946 E180.96439
G1 X118.063 Y105.335 E182.82628
G1 X117.991 Y104.728 E182.85677
G1 X117.827 Y103.985 E182.89474
G1 X117.683 Y103.546 E182.91779
G1 X117.684 Y103.542 E182.91799
G1 X92.452 Y78.31 E184.69824
G1 X93.054 Y77.875 E184.7353
G1 X93.283 Y77.727 E184.7489
G1 X117.963 Y102.406 E186.49017
G1 X118.059 Y101.768 E186.52236
G1 X118.092 Y101.121 E186.55468
G1 X94.182 Y77.211 E188.24166
G1 X94.463 Y77.068 E188.25739
G1 X95.15 Y76.765 E188.29485
G1 X118.099 Y99.714 E189.91403
G1 X118.099 Y98.481 E189.97554
G1 X118.093 Y98.294 E189.98488
G1 X96.194 Y76.395 E191.52997
G1 X96.719 Y76.254 E191.55709
G1 X97.336 Y76.123 E191.58856
G1 X117.864 Y96.651 E193.03692
G1 X117.824 Y96.472 E193.04607
G1 X117.684 Y96.048 E193.06835
G1 X117.884 Y95.257 E193.10905
G1 X98.577 Y75.95 E194.47127
G1 X98.827 Y75.936 E194.48376
G1 X98.976 Y75.917 E194.49125
G1 X99.508 Y75.899 E194.51781
G1 X99.941 Y75.9 E194.53941
G1 X118.072 Y94.031 E195.81865
G1 X118.099 Y93.495 E195.84543
G1 X118.099 Y92.643 E195.88793
G1 X101.355 Y75.9 E197.06928
G1 X102.77 Y75.9 E197.13987
G1 X118.099 Y91.229 E198.22142
G1 X118.099 Y90.982 E198.23374
G1 X118.08 Y90.469 E198.25935
G1 X117.987 Y89.707 E198.29765
G1 X117.987 Y89.702 E198.2979
G1 X104.184 Y75.9 E199.27174
G1 X105.598 Y75.9 E199.34228
G1 X117.798 Y88.099 E200.20302
G1 X117.947 Y87.509 E200.23338
G1 X118.037 Y86.924 E200.26291
G1 X107.012 Y75.9 E201.04075
G1 X108.427 Y75.9 E201.11135
G1 X118.098 Y85.571 E201.79369
G1 X118.098 Y84.157 E201.86423
G1 X109.841 Y75.9 E202.44681
G0 F7200 X110.474 Y75.9
G1 F1350 X111.266 Y75.939 E202.48637
G1 X111.3 Y75.944 E202.48808
G1 X118.046 Y82.691 E202.96408
G1 X117.987 Y82.208 E202.98836
G1 X117.823 Y81.472 E203.02598
G1 X117.615 Y80.845 E203.05894
G1 X113.161 Y76.392 E203.37316
;TIME_ELAPSED:125.478240
;LAYER:-7
G0 F7200 X113.536 Y76.316 Z.61
G1 F1800 X113.71 Y76.4 E203.37637
G1 X95.541 Y76.4 E203.67852
G1 X95.116 Y76.563 E203.68609
G1 X94.578 Y76.8 E203.69587
G1 X114.476 Y76.8 E204.02677
G1 X114.903 Y77.061 E204.0351
G1 X115.085 Y77.2 E204.0389
G1 X93.763 Y77.2 E204.39349
G1 X93.609 Y77.278 E204.39636
G1 X93.114 Y77.6 E204.40618
G1 X115.594 Y77.6 E204.78003
G1 X116.026 Y78 E204.78982
G1 X92.542 Y78 E205.18036
G1 X92.263 Y78.201 E205.18608
G1 X92.019 Y78.4 E205.19131
G1 X116.388 Y78.4 E205.59657
G1 X116.604 Y78.647 E205.60203
G1 X116.714 Y78.8 E205.60516
G1 X91.537 Y78.8 E206.02386
G1 X91.137 Y79.2 E206.03326
G1 X117.001 Y79.2 E206.46338
G1 X117.067 Y79.292 E206.46527
G1 X117.244 Y79.6 E206.47117
G1 X90.769 Y79.6 E206.91145
G1 X90.468 Y79.934 E206.91893
G1 X90.415 Y80 E206.92034
G1 X117.467 Y80 E207.37022
G1 X117.646 Y80.4 E207.3775
G1 X90.093 Y80.4 E207.83571
G1 X89.905 Y80.633 E207.84069
G1 X89.799 Y80.8 E207.84398
G1 X117.812 Y80.8 E208.30984
G1 X117.945 Y81.2 E208.31685
G1 X89.543 Y81.2 E208.78918
G1 X89.481 Y81.297 E208.79109
G1 X89.309 Y81.6 E208.79688
G1 X118.059 Y81.6 E209.275
G1 X118.148 Y82 E209.28181
G1 X89.08 Y82 E209.76522
G1 X89.068 Y82.021 E209.76562
G1 X88.878 Y82.4 E209.77267
G1 X118.214 Y82.4 E210.26053
G1 X118.262 Y82.8 E210.26723
G1 X88.68 Y82.8 E210.75918
G1 X88.53 Y83.2 E210.76628
G1 X118.291 Y83.2 E211.26121
G1 X118.3 Y83.482 E211.2659
G1 X118.3 Y83.6 E211.26786
G1 X88.384 Y83.6 E211.76537
G1 X88.255 Y84 E211.77236
G1 X118.3 Y84 E212.27201
G1 X118.3 Y84.4 E212.27866
G1 X88.133 Y84.4 E212.78034
G1 X88.027 Y84.8 E212.78722
G1 X118.3 Y84.8 E213.29066
G1 X118.3 Y85.2 E213.29732
G1 X87.934 Y85.2 E213.80231
G1 X87.871 Y85.6 E213.80904
G1 X118.3 Y85.6 E214.31508
G1 X118.3 Y85.985 E214.32148
G1 X118.299 Y86 E214.32173
G1 X87.816 Y86 E214.82866
G1 X87.774 Y86.4 E214.83535
G1 X118.279 Y86.4 E215.34265
G1 X118.261 Y86.778 E215.34894
G1 X118.257 Y86.8 E215.34932
G1 X87.738 Y86.8 E215.85685
G1 X87.717 Y87.2 E215.86351
G1 X118.196 Y87.2 E216.37038
G1 X118.141 Y87.561 E216.37645
G1 X118.131 Y87.6 E216.37712
G1 X87.7 Y87.6 E216.88319
G1 X87.7 Y88 E216.88984
G1 X118.029 Y88 E217.39422
G1 X117.928 Y88.4 E217.40108
G1 X87.7 Y88.4 E217.90377
G1 X87.7 Y88.8 E217.91042
G1 X117.979 Y88.8 E218.41396
G1 X118.015 Y88.91 E218.41589
G1 X118.081 Y89.2 E218.42084
G1 X87.096 Y89.2 E218.93612
G1 X86.68 Y89.339 E218.94341
G1 X86.097 Y89.6 E218.95403
G1 X118.171 Y89.6 E219.48743
G1 X118.185 Y89.665 E219.48853
G1 X118.226 Y90 E219.49415
G1 X85.368 Y90 E220.04058
G1 X85.292 Y90.043 E220.04203
G1 X84.795 Y90.4 E220.0522
G1 X118.275 Y90.4 E220.60898
G1 X118.282 Y90.466 E220.61008
G1 X118.294 Y90.8 E220.61564
G1 X84.311 Y90.8 E221.18078
G1 X84.063 Y91.017 E221.18626
G1 X83.894 Y91.2 E221.1904
G1 X118.3 Y91.2 E221.76258
G1 X118.3 Y91.6 E221.76923
G1 X83.525 Y91.6 E222.34754
G1 X83.22 Y92 E222.35591
G1 X118.3 Y92 E222.93929
G1 X118.3 Y92.4 E222.94594
G1 X82.944 Y92.4 E223.53391
G1 X82.699 Y92.8 E223.54171
G1 X118.3 Y92.8 E224.13376
G1 X118.3 Y93.2 E224.14041
G1 X82.497 Y93.2 E224.73582
G1 X82.316 Y93.574 E224.74273
G1 X82.307 Y93.6 E224.74319
G1 X118.294 Y93.6 E225.34165
G1 X118.274 Y94 E225.34831
G1 X82.161 Y94 E225.94887
G1 X82.047 Y94.309 E225.95435
G1 X82.024 Y94.4 E225.95591
G1 X118.241 Y94.4 E226.5582
G1 X118.18 Y94.8 E226.56493
G1 X81.923 Y94.8 E227.16789
G1 X81.859 Y95.05 E227.17218
G1 X81.836 Y95.2 E227.1747
G1 X118.105 Y95.2 E227.77786
G1 X118.004 Y95.6 E227.78472
G1 X81.775 Y95.6 E228.38721
G1 X81.739 Y95.832 E228.39112
G1 X81.731 Y96 E228.39391
G1 X117.903 Y96 E228.99546
G1 X117.893 Y96.04 E228.99614
G1 X118.013 Y96.4 E229.00245
G1 X81.712 Y96.4 E229.60614
G1 X81.7 Y96.625 E229.60989
G1 X81.7 Y96.8 E229.6128
G1 X118.104 Y96.8 E230.2182
G1 X118.185 Y97.165 E230.22442
G1 X118.19 Y97.2 E230.225
G1 X81.7 Y97.2 E230.83184
G1 X81.7 Y97.6 E230.83849
G1 X118.238 Y97.6 E231.44612
G1 X118.282 Y97.966 E231.45225
G1 X118.284 Y98 E231.45281
G1 X81.7 Y98 E232.06121
G1 X81.7 Y98.4 E232.06786
G1 X118.298 Y98.4 E232.67649
G1 X118.3 Y98.482 E232.67785
G1 X118.3 Y98.8 E232.68314
G1 X81.7 Y98.8 E233.2918
G1 X81.7 Y99.2 E233.29845
G1 X118.3 Y99.2 E233.90711
G1 X118.3 Y99.6 E233.91376
G1 X81.7 Y99.6 E234.52243
G1 X81.7 Y100 E234.52908
G1 X118.3 Y100 E235.13774
G1 X118.3 Y100.4 E235.14439
G1 X81.7 Y100.4 E235.75305
G1 X81.7 Y100.8 E235.7597
G1 X118.3 Y100.8 E236.36836
G1 X118.3 Y100.985 E236.37144
G1 X118.289 Y101.2 E236.37502
G1 X81.7 Y101.2 E236.9835
G1 X81.7 Y101.6 E236.99015
G1 X118.269 Y101.6 E237.59829
G1 X118.261 Y101.778 E237.60126
G1 X118.227 Y102 E237.60499
G1 X81.7 Y102 E238.21244
G1 X81.7 Y102.4 E238.21909
G1 X118.166 Y102.4 E238.82552
G1 X118.142 Y102.558 E238.82818
G1 X118.08 Y102.8 E238.83233
G1 X81.7 Y102.8 E239.43734
G1 X81.7 Y103.2 E239.44399
G1 X117.978 Y103.2 E240.04729
G1 X117.892 Y103.54 E240.05313
G1 X117.912 Y103.6 E240.05418
G1 X81.706 Y103.6 E240.65629
G1 X81.718 Y103.924 E240.66168
G1 X81.727 Y104 E240.66295
G1 X118.037 Y104 E241.26679
G1 X118.125 Y104.4 E241.2736
G1 X81.775 Y104.4 E241.8781
G1 X81.814 Y104.72 E241.88346
G1 X81.832 Y104.8 E241.88483
G1 X118.202 Y104.8 E242.48966
