;FLAVOR:RepRap
;TIME:2145
;Generated with Cura_SteamEngine 2.3.1
M190 S60
M104 S210
M109 S210
G21 ;metric values
G90 ;absolute positioning
M82 ;set extruder to absolute mode
M107 ;start with the fan off
G28 X0 Y0 ;move X/Y to min endstops
G28 Z0 ;move Z to min endstops
G1 Z15.0 F9000 ;move the platform down 15mm
G92 E0 ;zero the extruded length
G1 F200 E3 ;extrude 3mm of feed stock
G92 E0 ;zero the extruded length again
G1 F9000
;Put printing message on LCD screen
M117 Printing...
;LAYER_COUNT:148
;LAYER:0
M107
G1 F1500 E-6.5
G0 F3600 X93.435 Y82.631 Z.3
;TYPE:SKIRT
G1 F1500 E0
G1 F1800 X93.963 Y82.042 E0.03946
G1 X94.522 Y81.532 E0.07722
G1 X95.198 Y81.028 E0.11928
G1 X95.881 Y80.622 E0.15892
G1 X96.655 Y80.266 E0.20143
G1 X97.171 Y80.072 E0.22893
G1 X97.45 Y80.002 E0.24328
G1 X98.336 Y79.813 E0.28848
G1 X99.123 Y79.729 E0.32796
G1 X110.485 Y79.71 E0.89482
G1 X111.034 Y79.749 E0.92228
G1 X111.572 Y79.867 E0.94976
G1 X112.088 Y80.062 E0.97728
G1 X112.57 Y80.329 E1.00477
G1 X113.008 Y80.663 E1.03225
G1 X113.393 Y81.057 E1.05973
G1 X113.717 Y81.503 E1.08723
G1 X113.974 Y81.99 E1.1147
G1 X114.157 Y82.51 E1.14221
G1 X114.263 Y83.051 E1.16971
G1 X114.291 Y83.51 E1.19265
G1 X114.29 Y116.491 E2.83808
G1 X114.25 Y117.041 E2.86559
G1 X114.131 Y117.579 E2.89308
G1 X113.935 Y118.094 E2.92057
G1 X113.667 Y118.575 E2.94805
G1 X113.333 Y119.013 E2.97553
G1 X112.938 Y119.397 E3.00301
G1 X112.492 Y119.721 E3.03051
G1 X112.004 Y119.976 E3.05798
G1 X111.484 Y120.159 E3.08549
G1 X110.943 Y120.264 E3.11298
G1 X110.485 Y120.291 E3.13587
G1 X99.3 Y120.276 E3.69389
G1 X98.868 Y120.251 E3.71548
G1 X98.281 Y120.183 E3.74496
G1 X97.594 Y120.038 E3.77999
G1 X96.809 Y119.795 E3.82099
G1 X96.078 Y119.481 E3.86068
G1 X95.354 Y119.076 E3.90207
G1 X94.71 Y118.622 E3.94138
G1 X94.071 Y118.064 E3.9837
G1 X93.517 Y117.464 E4.02445
G1 X92.988 Y116.75 E4.06878
G1 X92.68 Y116.261 E4.09761
G1 X91.103 Y113.271 E4.26626
G1 X88.327 Y108.534 E4.54018
G1 X86.322 Y105.448 E4.72378
G1 X86.057 Y104.966 E4.75122
G1 X85.863 Y104.45 E4.77873
G1 X85.747 Y103.911 E4.80623
G1 X85.709 Y103.377 E4.83294
G1 X85.71 Y96.612 E5.17045
G1 X85.75 Y96.063 E5.19791
G1 X85.869 Y95.525 E5.2254
G1 X86.065 Y95.01 E5.25289
G1 X86.318 Y94.552 E5.279
G1 X88.648 Y90.944 E5.49327
G1 X91.417 Y86.157 E5.76917
G1 X92.919 Y83.366 E5.9273
G1 X93.215 Y82.901 E5.9548
G1 X93.435 Y82.631 E5.97218
G0 F3600 X93.733 Y82.898
G1 F1800 X94.261 Y82.309 E6.01164
G1 X94.761 Y81.852 E6.04544
G1 X95.437 Y81.348 E6.0875
G1 X96.048 Y80.985 E6.12296
G1 X96.822 Y80.629 E6.16546
G1 X97.534 Y80.393 E6.20289
G1 X98.42 Y80.204 E6.24808
G1 X99.123 Y80.129 E6.28336
G1 X110.485 Y80.11 E6.85021
G1 X111.005 Y80.149 E6.87622
G1 X111.513 Y80.267 E6.90224
G1 X111.996 Y80.461 E6.92821
G1 X112.444 Y80.727 E6.95421
G1 X112.847 Y81.058 E6.98022
G1 X113.194 Y81.447 E7.00623
G1 X113.477 Y81.885 E7.03225
G1 X113.691 Y82.36 E7.05824
G1 X113.829 Y82.863 E7.08426
G1 X113.891 Y83.51 E7.11669
G1 X113.89 Y116.491 E8.76212
G1 X113.85 Y117.011 E8.78814
G1 X113.731 Y117.518 E8.81412
G1 X113.536 Y118.001 E8.8401
G1 X113.269 Y118.449 E8.86612
G1 X112.938 Y118.851 E8.8921
G1 X112.548 Y119.197 E8.91811
G1 X112.11 Y119.48 E8.94413
G1 X111.634 Y119.693 E8.97015
G1 X111.132 Y119.83 E8.99611
G1 X110.485 Y119.891 E9.02853
G1 X99.3 Y119.876 E9.58655
G1 X98.914 Y119.853 E9.60584
G1 X98.327 Y119.785 E9.63533
G1 X97.713 Y119.656 E9.66663
G1 X96.928 Y119.413 E9.70762
G1 X96.273 Y119.132 E9.74318
G1 X95.549 Y118.727 E9.78457
G1 X94.973 Y118.321 E9.81973
G1 X94.334 Y117.763 E9.86205
G1 X93.838 Y117.226 E9.89852
G1 X93.309 Y116.512 E9.94286
G1 X93.034 Y116.074 E9.96866
G1 X91.45 Y113.07 E10.13809
G1 X88.67 Y108.326 E10.41241
G1 X86.658 Y105.23 E10.59662
G1 X86.408 Y104.773 E10.62261
G1 X86.232 Y104.283 E10.64858
G1 X86.132 Y103.771 E10.67461
G1 X86.109 Y103.377 E10.6943
G1 X86.11 Y96.612 E11.03181
G1 X86.15 Y96.093 E11.05778
G1 X86.269 Y95.585 E11.08381
G1 X86.464 Y95.102 E11.1098
G1 X86.654 Y94.769 E11.12892
G1 X88.995 Y91.143 E11.34425
G1 X91.75 Y86.38 E11.61877
G1 X93.271 Y83.555 E11.77884
G1 X93.553 Y83.117 E11.80482
G1 X93.733 Y82.898 E11.81897
G0 F3600 X94.031 Y83.165
G1 F1800 X94.559 Y82.576 E11.85843
G1 X95 Y82.173 E11.88824
G1 X95.676 Y81.669 E11.9303
G1 X96.215 Y81.348 E11.9616
G1 X96.989 Y80.992 E12.00411
G1 X97.617 Y80.784 E12.03711
G1 X98.503 Y80.595 E12.08231
G1 X99.124 Y80.529 E12.11346
G1 X110.486 Y80.51 E12.68032
G1 X110.974 Y80.549 E12.70474
G1 X111.449 Y80.667 E12.72916
G1 X111.899 Y80.861 E12.75361
G1 X112.311 Y81.125 E12.77802
G1 X112.674 Y81.453 E12.80243
G1 X112.98 Y81.835 E12.82685
G1 X113.219 Y82.262 E12.85126
G1 X113.386 Y82.722 E12.87568
G1 X113.475 Y83.203 E12.90008
G1 X113.491 Y83.51 E12.91542
G1 X113.49 Y116.491 E14.56085
G1 X113.45 Y116.979 E14.58527
G1 X113.331 Y117.454 E14.6097
G1 X113.137 Y117.903 E14.63411
G1 X112.872 Y118.315 E14.65855
G1 X112.544 Y118.678 E14.68295
G1 X112.161 Y118.983 E14.70738
G1 X111.733 Y119.221 E14.73181
G1 X111.273 Y119.387 E14.75621
G1 X110.791 Y119.476 E14.78066
G1 X110.486 Y119.491 E14.7959
G1 X99.301 Y119.476 E15.35392
G1 X98.96 Y119.456 E15.37096
G1 X98.373 Y119.388 E15.40044
G1 X97.831 Y119.274 E15.42808
G1 X97.046 Y119.031 E15.46907
G1 X96.468 Y118.783 E15.50045
G1 X95.744 Y118.378 E15.54184
G1 X95.236 Y118.02 E15.57285
G1 X94.597 Y117.462 E15.61517
G1 X94.16 Y116.988 E15.64733
G1 X93.631 Y116.274 E15.69167
G1 X93.388 Y115.888 E15.71442
G1 X91.8 Y112.878 E15.88421
G1 X89.011 Y108.118 E16.15945
G1 X86.993 Y105.012 E16.34424
G1 X86.761 Y104.582 E16.36862
G1 X86.602 Y104.119 E16.39304
G1 X86.52 Y103.636 E16.41748
G1 X86.509 Y103.378 E16.43037
G1 X86.51 Y96.613 E16.76787
G1 X86.55 Y96.125 E16.7923
G1 X86.669 Y95.65 E16.81673
G1 X86.863 Y95.201 E16.84113
G1 X86.99 Y94.986 E16.85359
G1 X89.333 Y91.358 E17.06906
G1 X92.12 Y86.539 E17.34679
G1 X93.624 Y83.745 E17.5051
G1 X94.031 Y83.165 E17.54045
G0 F3600 X94.329 Y83.432
G1 F1800 X94.857 Y82.843 E17.57991
G1 X95.239 Y82.494 E17.60573
G1 X95.915 Y81.99 E17.64779
G1 X96.383 Y81.712 E17.67495
G1 X97.157 Y81.356 E17.71745
G1 X97.701 Y81.175 E17.74606
G1 X98.587 Y80.986 E17.79125
G1 X99.125 Y80.929 E17.81825
G1 X110.487 Y80.91 E18.3851
G1 X110.941 Y80.949 E18.40783
G1 X111.381 Y81.067 E18.43056
G1 X111.794 Y81.26 E18.4533
G1 X112.166 Y81.522 E18.476
G1 X112.488 Y81.845 E18.49876
G1 X112.748 Y82.219 E18.52148
G1 X112.939 Y82.633 E18.54423
G1 X113.054 Y83.073 E18.56692
G1 X113.091 Y83.51 E18.5888
G1 X113.09 Y116.491 E20.23423
G1 X113.05 Y116.945 E20.25696
G1 X112.932 Y117.385 E20.27969
G1 X112.738 Y117.797 E20.30241
G1 X112.475 Y118.17 E20.32518
G1 X112.152 Y118.491 E20.3479
G1 X111.777 Y118.75 E20.37064
G1 X111.363 Y118.94 E20.39336
G1 X110.922 Y119.055 E20.4161
G1 X110.487 Y119.091 E20.43788
G1 X99.302 Y119.076 E20.9959
G1 X99.006 Y119.059 E21.01069
G1 X98.419 Y118.991 E21.04017
G1 X97.949 Y118.892 E21.06414
G1 X97.164 Y118.649 E21.10513
G1 X96.664 Y118.434 E21.13229
G1 X95.94 Y118.029 E21.17367
G1 X95.499 Y117.718 E21.2006
G1 X94.86 Y117.16 E21.24292
G1 X94.481 Y116.75 E21.27078
G1 X93.952 Y116.036 E21.31511
G1 X93.741 Y115.701 E21.33486
G1 X92.141 Y112.667 E21.50599
G1 X89.349 Y107.903 E21.78147
G1 X87.329 Y104.794 E21.96645
G1 X87.115 Y104.392 E21.98917
G1 X86.975 Y103.959 E22.01187
G1 X86.909 Y103.378 E22.04104
G1 X86.91 Y96.613 E22.37855
G1 X86.95 Y96.159 E22.40129
G1 X87.069 Y95.719 E22.42403
G1 X87.326 Y95.203 E22.45279
G1 X89.671 Y91.572 E22.66843
G1 X92.467 Y86.737 E22.94708
G1 X93.976 Y83.934 E23.1059
G1 X94.329 Y83.432 E23.13652
G0 F3600 X94.627 Y83.699
G1 F1800 X95.155 Y83.11 E23.17598
G1 X95.478 Y82.814 E23.19784
G1 X96.154 Y82.31 E23.23991
G1 X96.55 Y82.075 E23.26288
G1 X97.324 Y81.719 E23.30539
G1 X97.784 Y81.566 E23.32957
G1 X98.67 Y81.377 E23.37477
G1 X99.125 Y81.329 E23.39759
G1 X110.487 Y81.31 E23.96445
G1 X110.905 Y81.349 E23.98539
G1 X111.307 Y81.467 E24.00629
G1 X111.679 Y81.659 E24.02718
G1 X112.009 Y81.917 E24.04808
G1 X112.283 Y82.234 E24.06898
G1 X112.493 Y82.597 E24.0899
G1 X112.629 Y82.993 E24.11079
G1 X112.691 Y83.51 E24.13677
G1 X112.69 Y116.491 E25.7822
G1 X112.65 Y116.908 E25.8031
G1 X112.532 Y117.31 E25.824
G1 X112.339 Y117.682 E25.84491
G1 X112.08 Y118.012 E25.86584
G1 X111.763 Y118.285 E25.88671
G1 X111.399 Y118.494 E25.90765
G1 X111.003 Y118.63 E25.92854
G1 X110.487 Y118.691 E25.95446
G1 X99.302 Y118.676 E26.51249
G1 X99.052 Y118.661 E26.52498
G1 X98.465 Y118.593 E26.55446
G1 X98.067 Y118.51 E26.57475
G1 X97.282 Y118.267 E26.61574
G1 X96.859 Y118.085 E26.63872
G1 X96.135 Y117.68 E26.6801
G1 X95.762 Y117.417 E26.70287
G1 X95.123 Y116.859 E26.7452
G1 X94.802 Y116.512 E26.76878
G1 X94.273 Y115.798 E26.81311
G1 X94.095 Y115.514 E26.82984
G1 X92.497 Y112.484 E27.00074
G1 X89.696 Y107.705 E27.2771
G1 X87.664 Y104.577 E27.46319
G1 X87.47 Y104.205 E27.48412
G1 X87.351 Y103.803 E27.50504
G1 X87.309 Y103.378 E27.52635
G1 X87.31 Y96.613 E27.86385
G1 X87.35 Y96.196 E27.88475
G1 X87.468 Y95.794 E27.90566
G1 X87.662 Y95.42 E27.92668
G1 X90.023 Y91.763 E28.14384
G1 X92.8 Y86.961 E28.42059
G1 X94.328 Y84.124 E28.58135
G1 X94.627 Y83.699 E28.60728
G1 F1500 E22.10728
G0 F3600 X96.777 Y85.54
G0 X96.826 Y85.575
G0 X96.745 Y85.517
;TYPE:WALL-INNER
G1 F1500 E28.60728
G1 F1800 X97.241 Y84.966 E28.64427
G1 X97.811 Y84.554 E28.67935
G1 X98.463 Y84.267 E28.71489
G1 X99.151 Y84.122 E28.74997
G1 X100.106 Y84.122 E28.79762
G1 X100.106 Y84.1 E28.79872
G1 X109.9 Y84.1 E29.28734
G1 X109.9 Y85.4 E29.3522
G1 X104.9 Y85.4 E29.60165
G1 X104.9 Y85.473 E29.60529
G1 X104.541 Y85.55 E29.62361
G1 X103.948 Y85.813 E29.65597
G1 X103.423 Y86.195 E29.68836
G1 X103.013 Y86.65 E29.71892
G1 X101.736 Y86.651 E29.78263
G1 X101.541 Y86.66 E29.79237
G1 X101.176 Y86.739 E29.811
G1 X100.823 Y86.896 E29.83028
G1 X100.51 Y87.123 E29.84957
G1 X100.25 Y87.411 E29.86892
G1 X100.057 Y87.747 E29.88826
G1 X99.936 Y88.116 E29.90763
G1 X99.897 Y88.5 E29.92689
G1 X99.936 Y88.885 E29.94619
G1 X100.057 Y89.254 E29.96557
G1 X100.25 Y89.59 E29.9849
G1 X100.51 Y89.878 E30.00425
G1 X100.823 Y90.105 E30.02354
G1 X101.176 Y90.262 E30.04282
G1 X101.541 Y90.341 E30.06145
G1 X101.736 Y90.35 E30.07119
G1 X103.011 Y90.35 E30.1348
G1 X103.423 Y90.806 E30.16546
G1 X103.948 Y91.188 E30.19785
G1 X104.541 Y91.451 E30.23022
G1 X105.16 Y91.584 E30.2618
G1 X105.485 Y91.6 E30.27804
G1 X109.9 Y91.6 E30.4983
G1 X109.9 Y92.9 E30.56316
G1 X104.9 Y92.9 E30.81261
G1 X104.9 Y92.973 E30.81625
G1 X104.541 Y93.05 E30.83457
G1 X103.948 Y93.313 E30.86693
G1 X103.423 Y93.695 E30.89933
G1 X103.013 Y94.15 E30.92988
G1 X101.735 Y94.15 E30.99364
G1 X101.539 Y94.16 E31.00343
G1 X101.176 Y94.239 E31.02197
G1 X100.823 Y94.396 E31.04124
G1 X100.51 Y94.623 E31.06053
G1 X100.25 Y94.911 E31.07989
G1 X100.057 Y95.247 E31.09922
G1 X99.936 Y95.616 E31.1186
G1 X99.897 Y96 E31.13785
G1 X99.936 Y96.385 E31.15716
G1 X100.057 Y96.754 E31.17653
G1 X100.25 Y97.09 E31.19586
G1 X100.51 Y97.378 E31.21522
G1 X100.823 Y97.605 E31.23451
G1 X101.176 Y97.762 E31.25379
G1 X101.541 Y97.841 E31.27242
G1 X101.736 Y97.85 E31.28216
G1 X103.011 Y97.85 E31.34577
G1 X103.423 Y98.306 E31.37643
G1 X103.948 Y98.688 E31.40882
G1 X104.541 Y98.951 E31.44118
G1 X105.16 Y99.084 E31.47277
G1 X105.485 Y99.1 E31.489
G1 X109.9 Y99.1 E31.70927
G1 X109.9 Y100.4 E31.77413
G1 X104.9 Y100.4 E32.02358
G1 X104.9 Y100.472 E32.02717
G1 X104.541 Y100.549 E32.04549
G1 X103.948 Y100.812 E32.07785
G1 X103.423 Y101.194 E32.11024
G1 X103.011 Y101.65 E32.1409
G1 X101.736 Y101.65 E32.20451
G1 X101.541 Y101.659 E32.21425
G1 X101.176 Y101.738 E32.23288
G1 X100.823 Y101.895 E32.25216
G1 X100.51 Y102.122 E32.27145
G1 X100.25 Y102.41 E32.29081
G1 X100.057 Y102.746 E32.31014
G1 X99.936 Y103.115 E32.32951
G1 X99.897 Y103.5 E32.34882
G1 X99.936 Y103.884 E32.36807
G1 X100.057 Y104.253 E32.38745
G1 X100.25 Y104.589 E32.40678
G1 X100.51 Y104.877 E32.42614
G1 X100.823 Y105.104 E32.44543
G1 X101.176 Y105.261 E32.4647
G1 X101.553 Y105.343 E32.48395
G1 X103.012 Y105.349 E32.55674
G1 X103.423 Y105.805 E32.58737
G1 X103.948 Y106.187 E32.61976
G1 X104.541 Y106.45 E32.65212
G1 X105.174 Y106.586 E32.68443
G1 X105.511 Y106.587 E32.70124
G1 X105.65 Y106.587 E32.70817
G1 X109.9 Y106.598 E32.92021
G1 X109.9 Y106.9 E32.93527
G1 X105.65 Y106.9 E33.09827
G1 X105.65 Y106.957 E33.10112
G1 X105.515 Y106.986 E33.10775
G1 X105.021 Y107.092 E33.13296
G1 X104.261 Y107.43 E33.17445
G1 X103.587 Y107.918 E33.21597
G1 X103.03 Y108.537 E33.25751
G1 X103.001 Y108.587 E33.2604
G1 X100.587 Y108.587 E33.38083
G1 X100.587 Y108.674 E33.38517
G1 X100.48 Y108.697 E33.39063
G1 X100.042 Y108.89 E33.41451
G1 X99.653 Y109.172 E33.43848
G1 X99.335 Y109.529 E33.46233
G1 X99.095 Y109.942 E33.48616
G1 X98.947 Y110.399 E33.51013
G1 X98.897 Y110.875 E33.53401
G1 X98.947 Y111.35 E33.55784
G1 X99.095 Y111.807 E33.5818
G1 X99.335 Y112.22 E33.60563
G1 X99.653 Y112.577 E33.62949
G1 X100.042 Y112.859 E33.65346
G1 X100.48 Y113.052 E33.67734
G1 X100.587 Y113.075 E33.6828
G1 X100.587 Y113.162 E33.68714
G1 X103.001 Y113.162 E33.80757
G1 X103.03 Y113.212 E33.81046
G1 X103.587 Y113.831 E33.852
G1 X104.261 Y114.319 E33.89351
G1 X105.021 Y114.657 E33.93501
G1 X105.65 Y114.792 E33.96711
G1 X105.65 Y114.85 E33.97
G1 X109.9 Y114.85 E34.18203
G1 X109.9 Y115.9 E34.23442
G1 X99.535 Y115.9 E34.75153
G1 X98.79 Y115.821 E34.78891
G1 X98.123 Y115.605 E34.82389
G1 X97.504 Y115.248 E34.85954
G1 X96.975 Y114.77 E34.89511
G1 X96.559 Y114.198 E34.93039
G1 X96.27 Y113.551 E34.96574
G1 X96.122 Y112.854 E35.00129
G1 X96.122 Y111.895 E35.04914
G1 X96.1 Y111.895 E35.05024
G1 X96.1 Y100.541 E35.61669
G1 X93.1 Y100.54 E35.76636
G1 X92.9 Y100.54 E35.77634
G1 X92.9 Y100.74 E35.7828
G1 X92.9 Y102.79 E35.88507
G1 X90.1 Y102.79 E36.02477
G1 X90.1 Y97.21 E36.30315
G1 X92.9 Y97.21 E36.44285
G1 X92.9 Y99.459 E36.55505
G1 X95.9 Y99.46 E36.70472
G1 X96.1 Y99.46 E36.7147
G1 X96.1 Y99.26 E36.72116
G1 X96.1 Y87.536 E37.30607
G1 X96.177 Y86.805 E37.34274
G1 X96.392 Y86.134 E37.3779
G1 X96.745 Y85.517 E37.41336
G0 F3600 X96.826 Y85.575
G0 X99.706 Y84.222
G0 X99.706 Y83.722
;TYPE:WALL-OUTER
G1 F1800 X99.706 Y83.7 E37.41446
G1 X110.3 Y83.7 E37.94299
G1 X110.3 Y85.8 E38.04776
G1 X105.3 Y85.8 E38.29721
G1 X105.3 Y85.814 E38.29791
G1 X105.217 Y85.814 E38.30205
G1 X104.665 Y85.932 E38.33022
G1 X104.149 Y86.161 E38.35838
G1 X103.692 Y86.494 E38.38659
G1 X103.314 Y86.913 E38.41474
G1 X103.235 Y87.05 E38.42263
G1 X101.745 Y87.051 E38.49697
G1 X101.593 Y87.058 E38.50456
G1 X101.301 Y87.121 E38.51946
G1 X101.024 Y87.244 E38.53459
G1 X100.779 Y87.422 E38.54969
G1 X100.575 Y87.648 E38.56488
G1 X100.424 Y87.91 E38.57997
G1 X100.33 Y88.199 E38.59513
G1 X100.299 Y88.5 E38.61023
G1 X100.33 Y88.802 E38.62537
G1 X100.424 Y89.091 E38.64054
G1 X100.575 Y89.353 E38.65562
G1 X100.779 Y89.579 E38.67081
G1 X101.024 Y89.757 E38.68592
G1 X101.301 Y89.88 E38.70104
G1 X101.593 Y89.943 E38.71594
G1 X101.745 Y89.95 E38.72354
G1 X103.235 Y89.95 E38.79787
G1 X103.314 Y90.088 E38.80581
G1 X103.692 Y90.507 E38.83396
G1 X104.149 Y90.84 E38.86217
G1 X104.665 Y91.069 E38.89033
G1 X105.212 Y91.186 E38.91824
G1 X105.495 Y91.2 E38.93238
G1 X110.3 Y91.2 E39.1721
G1 X110.3 Y93.3 E39.27687
G1 X105.3 Y93.3 E39.52632
G1 X105.3 Y93.314 E39.52702
G1 X105.217 Y93.314 E39.53116
G1 X104.665 Y93.432 E39.55932
G1 X104.149 Y93.661 E39.58749
G1 X103.692 Y93.994 E39.6157
G1 X103.314 Y94.413 E39.64385
G1 X103.235 Y94.55 E39.65174
G1 X101.745 Y94.55 E39.72608
G1 X101.592 Y94.558 E39.73372
G1 X101.301 Y94.621 E39.74857
G1 X101.024 Y94.744 E39.7637
G1 X100.779 Y94.922 E39.7788
G1 X100.575 Y95.148 E39.79399
G1 X100.424 Y95.41 E39.80908
G1 X100.33 Y95.699 E39.82424
G1 X100.299 Y96 E39.83934
G1 X100.33 Y96.302 E39.85448
G1 X100.424 Y96.591 E39.86965
G1 X100.575 Y96.853 E39.88473
G1 X100.779 Y97.079 E39.89992
G1 X101.024 Y97.257 E39.91503
G1 X101.301 Y97.38 E39.93015
G1 X101.593 Y97.443 E39.94505
G1 X101.745 Y97.45 E39.95265
G1 X103.235 Y97.45 E40.02698
G1 X103.314 Y97.588 E40.03491
G1 X103.692 Y98.007 E40.06307
G1 X104.149 Y98.34 E40.09128
G1 X104.665 Y98.569 E40.11944
G1 X105.212 Y98.686 E40.14735
G1 X105.495 Y98.7 E40.16149
G1 X110.3 Y98.7 E40.40121
G1 X110.3 Y100.8 E40.50598
G1 X105.3 Y100.8 E40.75543
