;FLAVOR:RepRap
;TIME:2223
;Generated with Cura_SteamEngine 2.3.1
M190 S60
M104 S210
M109 S210
G21 ;metric values
G90 ;absolute positioning
M82 ;set extruder to absolute mode
M107 ;start with the fan off
G28 X0 Y0 ;move X/Y to min endstops
G28 Z0 ;move Z to min endstops
G1 Z15.0 F9000 ;move the platform down 15mm
G92 E0 ;zero the extruded length
G1 F200 E3 ;extrude 3mm of feed stock
G92 E0 ;zero the extruded length again
G1 F9000
;Put printing message on LCD screen
M117 Printing...
;LAYER_COUNT:148
;LAYER:0
M107
G1 F1500 E-6.5
G0 F3600 X91.345 Y79.926 Z.3
;TYPE:SKIRT
G1 F1500 E0
G1 F1800 X91.905 Y79.305 E0.04172
G1 X92.463 Y78.746 E0.08112
G1 X93.109 Y78.222 E0.12262
G1 X93.788 Y77.728 E0.16451
G1 X94.449 Y77.296 E0.20391
G1 X95.207 Y76.908 E0.24639
G1 X95.967 Y76.57 E0.28789
G1 X96.704 Y76.286 E0.3273
G1 X97.513 Y76.068 E0.3691
G1 X98.335 Y75.893 E0.41103
G1 X99.115 Y75.768 E0.45044
G1 X99.944 Y75.722 E0.49186
G1 X111.36 Y75.7 E1.06141
G1 X112.149 Y75.738 E1.10082
G1 X112.93 Y75.856 E1.14022
G1 X113.694 Y76.053 E1.17958
G1 X114.436 Y76.326 E1.21903
G1 X115.145 Y76.672 E1.25839
G1 X115.816 Y77.088 E1.29778
G1 X116.442 Y77.57 E1.33719
G1 X117.016 Y78.113 E1.37661
G1 X117.531 Y78.711 E1.41599
G1 X117.984 Y79.358 E1.45539
G1 X118.369 Y80.047 E1.49477
G1 X118.682 Y80.772 E1.53416
G1 X118.921 Y81.525 E1.57358
G1 X119.082 Y82.298 E1.61297
G1 X119.164 Y83.083 E1.65235
G1 X119.175 Y83.5 E1.67316
G1 X119.175 Y86 E1.79789
G1 X119.135 Y86.789 E1.8373
G1 X119.016 Y87.569 E1.87666
G1 X118.818 Y88.334 E1.91609
G1 X118.756 Y88.503 E1.92507
G1 X118.925 Y89.042 E1.95325
G1 X119.084 Y89.815 E1.99262
G1 X119.165 Y90.601 E2.03204
G1 X119.175 Y91.001 E2.05201
G1 X119.175 Y93.5 E2.17668
G1 X119.135 Y94.289 E2.2161
G1 X119.016 Y95.069 E2.25546
G1 X118.818 Y95.834 E2.29488
G1 X118.756 Y96.003 E2.30387
G1 X118.925 Y96.542 E2.33205
G1 X119.084 Y97.315 E2.37142
G1 X119.165 Y98.101 E2.41084
G1 X119.175 Y98.501 E2.4308
G1 X119.175 Y101 E2.55548
G1 X119.135 Y101.789 E2.59489
G1 X119.016 Y102.569 E2.63426
G1 X118.818 Y103.334 E2.67368
G1 X118.756 Y103.502 E2.68262
G1 X118.925 Y104.039 E2.7107
G1 X119.084 Y104.813 E2.75012
G1 X119.165 Y105.598 E2.78949
G1 X119.175 Y106 E2.80956
G1 X119.175 Y108.5 E2.93428
G1 X119.135 Y109.289 E2.9737
G1 X119.016 Y110.069 E3.01306
G1 X118.818 Y110.834 E3.05248
G1 X118.756 Y111.001 E3.06137
G1 X118.93 Y111.559 E3.09053
G1 X119.087 Y112.333 E3.12993
G1 X119.175 Y113.5 E3.18832
G1 X119.175 Y116.5 E3.33799
G1 X119.135 Y117.289 E3.37741
G1 X119.016 Y118.069 E3.41677
G1 X118.818 Y118.834 E3.45619
G1 X118.544 Y119.574 E3.49556
G1 X118.196 Y120.283 E3.53497
G1 X117.778 Y120.954 E3.57441
G1 X117.295 Y121.578 E3.61377
G1 X116.752 Y122.151 E3.65316
G1 X116.153 Y122.666 E3.69257
G1 X115.505 Y123.117 E3.73196
G1 X114.814 Y123.501 E3.7714
G1 X114.089 Y123.813 E3.81077
G1 X113.336 Y124.05 E3.85016
G1 X112.562 Y124.209 E3.88958
G1 X111.777 Y124.29 E3.92895
G1 X111.375 Y124.3 E3.94901
G1 X100.381 Y124.3 E4.49751
G1 X99.566 Y124.257 E4.53822
G1 X98.728 Y124.169 E4.58026
G1 X97.948 Y124.047 E4.61965
G1 X97.127 Y123.828 E4.66204
G1 X96.332 Y123.569 E4.70376
G1 X95.594 Y123.287 E4.74317
G1 X94.855 Y122.912 E4.78452
G1 X94.131 Y122.495 E4.8262
G1 X93.468 Y122.067 E4.86557
G1 X92.8 Y121.529 E4.90836
G1 X92.179 Y120.969 E4.95008
G1 X91.62 Y120.411 E4.98948
G1 X91.094 Y119.763 E5.03112
G1 X90.601 Y119.085 E5.07295
G1 X90.17 Y118.424 E5.11231
G1 X89.783 Y117.668 E5.15469
G1 X89.445 Y116.908 E5.19618
G1 X89.161 Y116.171 E5.23559
G1 X88.943 Y115.362 E5.27739
G1 X88.768 Y114.54 E5.31932
G1 X88.643 Y113.76 E5.35873
G1 X88.597 Y112.923 E5.40055
G1 X88.575 Y87.514 E6.66821
G1 X88.617 Y86.694 E6.70917
G1 X88.705 Y85.854 E6.75131
G1 X88.827 Y85.074 E6.7907
G1 X89.047 Y84.251 E6.8332
G1 X89.306 Y83.456 E6.87491
G1 X89.588 Y82.718 E6.91433
G1 X89.964 Y81.978 E6.95574
G1 X90.38 Y81.256 E6.99731
G1 X90.808 Y80.593 E7.03668
G1 X91.345 Y79.926 E7.0794
G0 F3600 X91.642 Y80.194
G1 F1800 X92.202 Y79.573 E7.12112
G1 X92.747 Y79.03 E7.15951
G1 X93.344 Y78.545 E7.19788
G1 X94.023 Y78.051 E7.23977
G1 X94.668 Y77.632 E7.27814
G1 X95.37 Y77.274 E7.31746
G1 X96.13 Y76.936 E7.35896
G1 X96.848 Y76.66 E7.39733
G1 X97.596 Y76.459 E7.43597
G1 X98.418 Y76.284 E7.4779
G1 X99.178 Y76.163 E7.5163
G1 X99.945 Y76.122 E7.55462
G1 X111.361 Y76.1 E8.12417
G1 X112.129 Y76.139 E8.16253
G1 X112.889 Y76.257 E8.2009
G1 X113.633 Y76.453 E8.23929
G1 X114.352 Y76.725 E8.27764
G1 X115.039 Y77.071 E8.31601
G1 X115.687 Y77.486 E8.3544
G1 X116.288 Y77.966 E8.39278
G1 X116.836 Y78.506 E8.43116
G1 X117.324 Y79.1 E8.46951
G1 X117.749 Y79.741 E8.50788
G1 X118.105 Y80.423 E8.54627
G1 X118.388 Y81.138 E8.58463
G1 X118.595 Y81.879 E8.62301
G1 X118.724 Y82.637 E8.66138
G1 X118.775 Y83.5 E8.70451
G1 X118.775 Y86 E8.82923
G1 X118.735 Y86.768 E8.8676
G1 X118.616 Y87.528 E8.90598
G1 X118.418 Y88.271 E8.94434
G1 X118.332 Y88.498 E8.95645
G1 X118.393 Y88.654 E8.96481
G1 X118.599 Y89.395 E9.00318
G1 X118.726 Y90.153 E9.04152
G1 X118.775 Y91.001 E9.0839
G1 X118.775 Y93.5 E9.20857
G1 X118.735 Y94.268 E9.24694
G1 X118.616 Y95.028 E9.28532
G1 X118.418 Y95.771 E9.32368
G1 X118.332 Y95.998 E9.33579
G1 X118.393 Y96.154 E9.34415
G1 X118.599 Y96.895 E9.38252
G1 X118.726 Y97.653 E9.42086
G1 X118.775 Y98.501 E9.46324
G1 X118.775 Y101 E9.58792
G1 X118.735 Y101.768 E9.62628
G1 X118.616 Y102.528 E9.66466
G1 X118.418 Y103.271 E9.70303
G1 X118.332 Y103.498 E9.71514
G1 X118.392 Y103.651 E9.72334
G1 X118.598 Y104.393 E9.76175
G1 X118.726 Y105.151 E9.80011
G1 X118.775 Y106 E9.84253
G1 X118.775 Y108.5 E9.96726
G1 X118.735 Y109.268 E10.00563
G1 X118.616 Y110.028 E10.044
G1 X118.418 Y110.771 E10.08237
G1 X118.332 Y110.998 E10.09448
G1 X118.399 Y111.17 E10.10369
G1 X118.603 Y111.912 E10.14208
G1 X118.728 Y112.671 E10.18046
G1 X118.775 Y113.5 E10.22188
G1 X118.775 Y116.5 E10.37155
G1 X118.735 Y117.268 E10.40992
G1 X118.616 Y118.028 E10.4483
G1 X118.418 Y118.771 E10.48666
G1 X118.144 Y119.49 E10.52505
G1 X117.797 Y120.176 E10.5634
G1 X117.381 Y120.823 E10.60178
G1 X116.9 Y121.423 E10.64014
G1 X116.359 Y121.97 E10.67853
G1 X115.764 Y122.458 E10.71692
G1 X115.122 Y122.881 E10.75527
G1 X114.439 Y123.236 E10.79368
G1 X113.724 Y123.517 E10.832
G1 X112.982 Y123.723 E10.87042
G1 X112.224 Y123.851 E10.90877
G1 X111.375 Y123.9 E10.9512
G1 X100.381 Y123.9 E11.4997
G1 X99.608 Y123.86 E11.53831
G1 X98.77 Y123.772 E11.58035
G1 X98.01 Y123.652 E11.61874
G1 X97.251 Y123.448 E11.65795
G1 X96.456 Y123.189 E11.69966
G1 X95.738 Y122.913 E11.73804
G1 X95.055 Y122.565 E11.77628
G1 X94.331 Y122.148 E11.81796
G1 X93.685 Y121.73 E11.85635
G1 X93.068 Y121.232 E11.89591
G1 X92.447 Y120.672 E11.93763
G1 X91.904 Y120.127 E11.97601
G1 X91.418 Y119.528 E12.01449
G1 X90.925 Y118.85 E12.05632
G1 X90.506 Y118.205 E12.09469
G1 X90.149 Y117.505 E12.13389
G1 X89.811 Y116.745 E12.17539
G1 X89.535 Y116.027 E12.21377
G1 X89.334 Y115.279 E12.25241
G1 X89.159 Y114.457 E12.29434
G1 X89.038 Y113.697 E12.33273
G1 X88.997 Y112.922 E12.37145
G1 X88.975 Y87.513 E13.63911
G1 X89.015 Y86.736 E13.67793
G1 X89.103 Y85.896 E13.72006
G1 X89.223 Y85.136 E13.75845
G1 X89.427 Y84.375 E13.79776
G1 X89.686 Y83.58 E13.83947
G1 X89.962 Y82.862 E13.87785
G1 X90.31 Y82.178 E13.91613
G1 X90.726 Y81.456 E13.95771
G1 X91.144 Y80.81 E13.99609
G1 X91.642 Y80.194 E14.03561
G0 F3600 X91.94 Y80.462
G1 F1800 X92.5 Y79.841 E14.07733
G1 X93.029 Y79.313 E14.11462
G1 X93.58 Y78.869 E14.14992
G1 X94.259 Y78.375 E14.19182
G1 X94.886 Y77.967 E14.22914
G1 X95.532 Y77.639 E14.26528
G1 X96.292 Y77.301 E14.30678
G1 X96.991 Y77.034 E14.34411
G1 X97.679 Y76.85 E14.37964
G1 X98.501 Y76.675 E14.42157
G1 X99.24 Y76.559 E14.45889
G1 X99.946 Y76.522 E14.49416
G1 X111.362 Y76.5 E15.06371
G1 X112.109 Y76.539 E15.10103
G1 X112.847 Y76.657 E15.13831
G1 X113.569 Y76.853 E15.17564
G1 X114.266 Y77.125 E15.21297
G1 X114.93 Y77.47 E15.2503
G1 X115.553 Y77.884 E15.28762
G1 X116.128 Y78.361 E15.32489
G1 X116.65 Y78.898 E15.36225
G1 X117.111 Y79.487 E15.39957
G1 X117.506 Y80.122 E15.43688
G1 X117.832 Y80.796 E15.47423
G1 X118.083 Y81.5 E15.51152
G1 X118.258 Y82.228 E15.54887
G1 X118.355 Y82.969 E15.58616
G1 X118.375 Y83.5 E15.61267
G1 X118.375 Y86 E15.73739
G1 X118.335 Y86.747 E15.77472
G1 X118.216 Y87.485 E15.81201
G1 X118.018 Y88.207 E15.84936
G1 X117.904 Y88.498 E15.86495
G1 X118.088 Y89.016 E15.89238
G1 X118.261 Y89.743 E15.92966
G1 X118.356 Y90.485 E15.96698
G1 X118.375 Y91.001 E15.99274
G1 X118.375 Y93.5 E16.11742
G1 X118.335 Y94.247 E16.15474
G1 X118.216 Y94.985 E16.19203
G1 X118.018 Y95.707 E16.22938
G1 X117.904 Y95.998 E16.24498
G1 X118.088 Y96.516 E16.2724
G1 X118.261 Y97.243 E16.30968
G1 X118.356 Y97.985 E16.34701
G1 X118.375 Y98.501 E16.37277
G1 X118.375 Y101 E16.49744
G1 X118.335 Y101.747 E16.53476
G1 X118.216 Y102.485 E16.57206
G1 X118.018 Y103.207 E16.60941
G1 X117.904 Y103.497 E16.62495
G1 X118.087 Y104.013 E16.65227
G1 X118.261 Y104.741 E16.68961
G1 X118.356 Y105.483 E16.72693
G1 X118.375 Y106 E16.75274
G1 X118.375 Y108.5 E16.87747
G1 X118.335 Y109.247 E16.91479
G1 X118.216 Y109.985 E16.95208
G1 X118.018 Y110.707 E16.98944
G1 X117.904 Y110.997 E17.00498
G1 X118.092 Y111.531 E17.03323
G1 X118.264 Y112.259 E17.07055
G1 X118.357 Y113.001 E17.10785
G1 X118.375 Y113.5 E17.13277
G1 X118.375 Y116.5 E17.28244
G1 X118.335 Y117.247 E17.31976
G1 X118.216 Y117.985 E17.35705
G1 X118.018 Y118.707 E17.3944
G1 X117.745 Y119.403 E17.4317
G1 X117.398 Y120.066 E17.46904
G1 X116.983 Y120.689 E17.50638
G1 X116.504 Y121.263 E17.54368
G1 X115.967 Y121.784 E17.58101
G1 X115.377 Y122.243 E17.6183
G1 X114.741 Y122.638 E17.65565
G1 X114.067 Y122.962 E17.69296
G1 X113.362 Y123.212 E17.73028
G1 X112.634 Y123.386 E17.76762
G1 X111.892 Y123.481 E17.80495
G1 X111.375 Y123.5 E17.83076
G1 X100.381 Y123.5 E18.37925
G1 X99.65 Y123.462 E18.41577
G1 X98.812 Y123.374 E18.45781
G1 X98.073 Y123.256 E18.49514
G1 X97.375 Y123.068 E18.53121
G1 X96.58 Y122.809 E18.57292
G1 X95.882 Y122.539 E18.61026
G1 X95.254 Y122.219 E18.64542
G1 X94.53 Y121.802 E18.68711
G1 X93.903 Y121.394 E18.72443
G1 X93.336 Y120.934 E18.76085
G1 X92.715 Y120.374 E18.80257
G1 X92.187 Y119.845 E18.83986
G1 X91.741 Y119.293 E18.87526
G1 X91.248 Y118.615 E18.91709
G1 X90.842 Y117.987 E18.9544
G1 X90.514 Y117.343 E18.99045
G1 X90.176 Y116.583 E19.03195
G1 X89.909 Y115.884 E19.06928
G1 X89.725 Y115.196 E19.10481
G1 X89.55 Y114.374 E19.14674
G1 X89.434 Y113.635 E19.18406
G1 X89.397 Y112.922 E19.21968
G1 X89.375 Y87.513 E20.48734
G1 X89.413 Y86.778 E20.52406
G1 X89.501 Y85.938 E20.5662
G1 X89.619 Y85.199 E20.60353
G1 X89.807 Y84.499 E20.63969
G1 X90.066 Y83.704 E20.68141
G1 X90.336 Y83.006 E20.71874
G1 X90.657 Y82.377 E20.75398
G1 X91.073 Y81.655 E20.79555
G1 X91.48 Y81.028 E20.83284
G1 X91.94 Y80.462 E20.86923
G0 F3600 X92.237 Y80.73
G1 F1800 X92.797 Y80.109 E20.91095
G1 X93.312 Y79.597 E20.94718
G1 X93.815 Y79.192 E20.9794
G1 X94.494 Y78.698 E21.02129
G1 X95.104 Y78.304 E21.05752
G1 X95.695 Y78.004 E21.09058
G1 X96.455 Y77.666 E21.13208
G1 X97.134 Y77.408 E21.16832
G1 X97.763 Y77.242 E21.20078
G1 X98.585 Y77.067 E21.2427
G1 X99.302 Y76.955 E21.27891
G1 X99.946 Y76.922 E21.31108
G1 X111.362 Y76.9 E21.88063
G1 X112.088 Y76.939 E21.9169
G1 X112.804 Y77.057 E21.9531
G1 X113.504 Y77.253 E21.98937
G1 X114.177 Y77.524 E22.02557
G1 X114.817 Y77.869 E22.06184
G1 X115.415 Y78.281 E22.09807
G1 X115.964 Y78.756 E22.13429
G1 X116.457 Y79.289 E22.17051
G1 X116.889 Y79.873 E22.20675
G1 X117.254 Y80.501 E22.24299
G1 X117.548 Y81.166 E22.27926
G1 X117.768 Y81.858 E22.31549
G1 X117.909 Y82.571 E22.35175
G1 X117.975 Y83.5 E22.39822
G1 X117.975 Y86 E22.52294
G1 X117.935 Y86.725 E22.55917
G1 X117.816 Y87.442 E22.59543
G1 X117.618 Y88.141 E22.63167
G1 X117.473 Y88.498 E22.6509
G1 X117.553 Y88.68 E22.66082
G1 X117.771 Y89.373 E22.69706
G1 X117.911 Y90.085 E22.73326
G1 X117.975 Y91.001 E22.77907
G1 X117.975 Y93.5 E22.90375
G1 X117.935 Y94.225 E22.93997
G1 X117.816 Y94.942 E22.97623
G1 X117.618 Y95.641 E23.01248
G1 X117.473 Y95.998 E23.0317
G1 X117.553 Y96.18 E23.04162
G1 X117.771 Y96.873 E23.07787
G1 X117.911 Y97.585 E23.11407
G1 X117.975 Y98.501 E23.15988
G1 X117.975 Y101 E23.28456
G1 X117.935 Y101.725 E23.32078
G1 X117.816 Y102.442 E23.35704
G1 X117.618 Y103.141 E23.39329
G1 X117.473 Y103.497 E23.41246
G1 X117.553 Y103.678 E23.42234
G1 X117.771 Y104.371 E23.45858
G1 X117.911 Y105.083 E23.49478
G1 X117.975 Y106 E23.54064
G1 X117.975 Y108.5 E23.66537
G1 X117.935 Y109.225 E23.70159
G1 X117.816 Y109.942 E23.73786
G1 X117.618 Y110.641 E23.7741
G1 X117.473 Y110.998 E23.79332
G1 X117.559 Y111.194 E23.804
G1 X117.775 Y111.888 E23.84026
G1 X117.913 Y112.601 E23.8765
G1 X117.975 Y113.5 E23.92145
G1 X117.975 Y116.5 E24.07113
G1 X117.935 Y117.225 E24.10735
G1 X117.816 Y117.942 E24.14361
G1 X117.618 Y118.641 E24.17986
G1 X117.345 Y119.314 E24.21609
G1 X117 Y119.953 E24.25232
G1 X116.586 Y120.55 E24.28856
G1 X116.11 Y121.098 E24.32478
G1 X115.576 Y121.591 E24.36104
G1 X114.991 Y122.021 E24.39726
G1 X114.362 Y122.385 E24.43352
G1 X113.697 Y122.678 E24.46977
G1 X113.004 Y122.896 E24.50601
G1 X112.292 Y123.036 E24.54222
G1 X111.375 Y123.1 E24.58808
G1 X100.381 Y123.1 E25.13657
G1 X99.692 Y123.064 E25.17099
G1 X98.854 Y122.976 E25.21303
G1 X98.137 Y122.86 E25.24927
G1 X97.499 Y122.687 E25.28225
G1 X96.704 Y122.428 E25.32396
G1 X96.026 Y122.166 E25.36022
G1 X95.454 Y121.872 E25.39231
G1 X94.73 Y121.455 E25.43399
G1 X94.121 Y121.059 E25.47023
G1 X93.604 Y120.637 E25.50353
G1 X92.983 Y120.077 E25.54525
G1 X92.471 Y119.562 E25.58148
G1 X92.065 Y119.057 E25.6138
G1 X91.572 Y118.379 E25.65563
G1 X91.178 Y117.769 E25.69186
G1 X90.879 Y117.18 E25.72481
G1 X90.541 Y116.42 E25.76631
G1 X90.283 Y115.741 E25.80255
G1 X90.117 Y115.112 E25.835
G1 X89.942 Y114.29 E25.87693
G1 X89.83 Y113.573 E25.91314
G1 X89.797 Y112.922 E25.94566
G1 X89.775 Y87.513 E27.21332
G1 X89.811 Y86.819 E27.24799
G1 X89.899 Y85.979 E27.29012
G1 X90.014 Y85.262 E27.32635
G1 X90.188 Y84.623 E27.35939
G1 X90.447 Y83.828 E27.40111
G1 X90.709 Y83.15 E27.43737
G1 X91.003 Y82.577 E27.4695
G1 X91.419 Y81.855 E27.51107
G1 X91.816 Y81.247 E27.5473
G1 X92.237 Y80.73 E27.58056
G0 F3600 X92.534 Y80.998
G1 F1800 X93.094 Y80.377 E27.62228
G1 X93.594 Y79.882 E27.65738
G1 X94.05 Y79.515 E27.68659
G1 X94.729 Y79.021 E27.72848
G1 X95.321 Y78.64 E27.7636
G1 X95.858 Y78.37 E27.79359
G1 X96.618 Y78.032 E27.83509
G1 X97.276 Y77.783 E27.87019
G1 X97.846 Y77.633 E27.89959
G1 X98.668 Y77.458 E27.94152
G1 X99.364 Y77.351 E27.97665
G1 X99.947 Y77.322 E28.00577
G1 X111.363 Y77.3 E28.57532
G1 X112.066 Y77.339 E28.61045
G1 X112.76 Y77.457 E28.64557
G1 X113.436 Y77.653 E28.68068
G1 X114.086 Y77.924 E28.71582
G1 X114.7 Y78.267 E28.75091
G1 X115.272 Y78.678 E28.78605
G1 X115.794 Y79.151 E28.82119
G1 X116.258 Y79.68 E28.8563
G1 X116.66 Y80.258 E28.89142
G1 X116.993 Y80.878 E28.92653
G1 X117.254 Y81.532 E28.96166
G1 X117.44 Y82.211 E28.99679
G1 X117.547 Y82.907 E29.03192
G1 X117.575 Y83.5 E29.06154
G1 X117.575 Y86 E29.18626
G1 X117.535 Y86.703 E29.22139
G1 X117.416 Y87.397 E29.25652
G1 X117.218 Y88.072 E29.29162
G1 X117.04 Y88.496 E29.31456
G1 X117.258 Y89.045 E29.34403
G1 X117.442 Y89.725 E29.37917
G1 X117.548 Y90.421 E29.4143
G1 X117.575 Y91.001 E29.44326
G1 X117.575 Y93.5 E29.56794
G1 X117.535 Y94.203 E29.60307
G1 X117.416 Y94.897 E29.6382
G1 X117.218 Y95.572 E29.67329
G1 X117.04 Y95.996 E29.69624
G1 X117.258 Y96.545 E29.72571
G1 X117.442 Y97.225 E29.76085
G1 X117.548 Y97.921 E29.79597
G1 X117.575 Y98.501 E29.82494
G1 X117.575 Y101 E29.94962
G1 X117.535 Y101.703 E29.98475
G1 X117.416 Y102.397 E30.01988
G1 X117.218 Y103.072 E30.05497
G1 X117.04 Y103.496 E30.07791
G1 X117.258 Y104.043 E30.10729
G1 X117.442 Y104.723 E30.14244
G1 X117.548 Y105.419 E30.17756
G1 X117.575 Y106 E30.20658
G1 X117.575 Y108.5 E30.3313
G1 X117.535 Y109.203 E30.36643
G1 X117.416 Y109.897 E30.40156
G1 X117.218 Y110.572 E30.43666
G1 X117.041 Y110.995 E30.45953
G1 X117.263 Y111.559 E30.48977
G1 X117.445 Y112.239 E30.52489
G1 X117.549 Y112.935 E30.56
G1 X117.575 Y113.5 E30.58822
G1 X117.575 Y116.5 E30.73789
G1 X117.535 Y117.203 E30.77302
G1 X117.416 Y117.897 E30.80815
G1 X117.218 Y118.572 E30.84324
